(Generated by PartKam Version 0.05)

G21 G90 G40

(profile 2)
G0 Z15
T0 M6
G17
M3
G0 X230.94746192893402 Y78.5494923857868
G1 Z-1.5 F500
G1 X8.345177664974619 Y78.5482233502538 F550
G1 X8.345177664974619 Y62.49746192893401
G1 X8.345177664974619 Y43.44923857868021
G1 X8.345177664974619 Y24.39593908629442
G1 X8.345177664974619 Y8.345177664974619
G1 X230.94670050761422 Y8.345177664974619
G1 X230.94670050761422 Y78.5482233502538
G1 Z-3 F500
G1 X8.345177664974619 Y78.5482233502538 F550
G1 X8.345177664974619 Y62.49746192893401
G1 X8.345177664974619 Y43.44923857868021
G1 X8.345177664974619 Y24.39593908629442
G1 X8.345177664974619 Y8.345177664974619
G1 X230.94670050761422 Y8.345177664974619
G1 X230.94670050761422 Y78.5482233502538
G1 Z-4.5 F500
G1 X8.345177664974619 Y78.5482233502538 F550
G1 X8.345177664974619 Y62.49746192893401
G1 X8.345177664974619 Y43.44923857868021
G1 X8.345177664974619 Y24.39593908629442
G1 X8.345177664974619 Y8.345177664974619
G1 X230.94670050761422 Y8.345177664974619
G1 X230.94670050761422 Y78.5482233502538
G1 Z-6 F500
G1 X8.345177664974619 Y78.5482233502538 F550
G1 X8.345177664974619 Y62.49746192893401
G1 X8.345177664974619 Y43.44923857868021
G1 X8.345177664974619 Y24.39593908629442
G1 X8.345177664974619 Y8.345177664974619
G1 X230.94670050761422 Y8.345177664974619
G1 X230.94670050761422 Y78.5482233502538
G1 Z-7.5 F500
G1 X8.345177664974619 Y78.5482233502538 F550
G1 X8.345177664974619 Y62.49746192893401
G1 X8.345177664974619 Y43.44923857868021
G1 X8.345177664974619 Y24.39593908629442
G1 X8.345177664974619 Y8.345177664974619
G1 X230.94670050761422 Y8.345177664974619
G1 X230.94670050761422 Y78.5482233502538
G1 Z-9 F500
G1 X8.345177664974619 Y78.5482233502538 F550
G1 X8.345177664974619 Y62.49746192893401
G1 X8.345177664974619 Y43.44923857868021
G1 X8.345177664974619 Y24.39593908629442
G1 X8.345177664974619 Y8.345177664974619
G1 X230.94670050761422 Y8.345177664974619
G1 X230.94670050761422 Y78.5482233502538
G1 Z-10.5 F500
G1 X8.345177664974619 Y78.5482233502538 F550
G1 X8.345177664974619 Y62.49746192893401
G1 X8.345177664974619 Y43.44923857868021
G1 X8.345177664974619 Y24.39593908629442
G1 X8.345177664974619 Y8.345177664974619
G1 X230.94670050761422 Y8.345177664974619
G1 X230.94670050761422 Y78.5482233502538
G1 Z-12 F500
G1 X8.345177664974619 Y78.5482233502538 F550
G1 X8.345177664974619 Y62.49746192893401
G1 X8.345177664974619 Y43.44923857868021
G1 X8.345177664974619 Y24.39593908629442
G1 X8.345177664974619 Y8.345177664974619
G1 X230.94670050761422 Y8.345177664974619
G1 X230.94670050761422 Y78.5482233502538
G1 Z-13.5 F500
G1 X8.345177664974619 Y78.5482233502538 F550
G1 X8.345177664974619 Y62.49746192893401
G1 X8.345177664974619 Y43.44923857868021
G1 X8.345177664974619 Y24.39593908629442
G1 X8.345177664974619 Y8.345177664974619
G1 X230.94670050761422 Y8.345177664974619
G1 X230.94670050761422 Y78.5482233502538
G1 Z-15 F500
G1 X8.345177664974619 Y78.5482233502538 F550
G1 X8.345177664974619 Y62.49746192893401
G1 X8.345177664974619 Y43.44923857868021
G1 X8.345177664974619 Y24.39593908629442
G1 X8.345177664974619 Y8.345177664974619
G1 X230.94670050761422 Y8.345177664974619
G1 X230.94670050761422 Y78.5482233502538
G1 Z-16.5 F500
G1 X8.345177664974619 Y78.5482233502538 F550
G1 X8.345177664974619 Y62.49746192893401
G1 X8.345177664974619 Y43.44923857868021
G1 X8.345177664974619 Y24.39593908629442
G1 X8.345177664974619 Y8.345177664974619
G1 X230.94670050761422 Y8.345177664974619
G1 X230.94670050761422 Y78.5482233502538
G1 Z-18 F500
G1 X8.345177664974619 Y78.5482233502538 F550
G1 X8.345177664974619 Y62.49746192893401
G1 X8.345177664974619 Y43.44923857868021
G1 X8.345177664974619 Y24.39593908629442
G1 X8.345177664974619 Y8.345177664974619
G1 X230.94670050761422 Y8.345177664974619
G1 X230.94670050761422 Y78.5482233502538
G1 Z-19 F500
G1 X8.345177664974619 Y78.5482233502538 F550
G1 X8.345177664974619 Y62.49746192893401
G1 X8.345177664974619 Y43.44923857868021
G1 X8.345177664974619 Y24.39593908629442
G1 X8.345177664974619 Y8.345177664974619
G1 X230.94670050761422 Y8.345177664974619
G1 X230.94670050761422 Y78.5482233502538
G0 Z15
M5
M30
