(Generated by PartKam Version 0.05)

G21 G90 G40

(profile 1)
G0 Z15
T0 M6
G17
M3
G0 X236.6994923857868 Y89.45253807106599

(profile 3)
G0 Z15
G0 X230.6994923857868 Y78.45456852791878
G1 Z-1.5 F500
G1 X8.096446700507615 Y78.45431472081218 F550
G1 X8.096446700507615 Y62.401015228426395
G1 X8.096446700507615 Y43.35279187817258
G1 X8.096446700507615 Y24.30203045685279
G1 X8.096446700507615 Y8.251269035532996
G1 X230.70050761421322 Y8.251269035532996
G1 X230.70050761421322 Y78.45431472081218
G1 Z-3 F500
G1 X8.096446700507615 Y78.45431472081218 F550
G1 X8.096446700507615 Y62.401015228426395
G1 X8.096446700507615 Y43.35279187817258
G1 X8.096446700507615 Y24.30203045685279
G1 X8.096446700507615 Y8.251269035532996
G1 X230.70050761421322 Y8.251269035532996
G1 X230.70050761421322 Y78.45431472081218
G1 Z-4.5 F500
G1 X8.096446700507615 Y78.45431472081218 F550
G1 X8.096446700507615 Y62.401015228426395
G1 X8.096446700507615 Y43.35279187817258
G1 X8.096446700507615 Y24.30203045685279
G1 X8.096446700507615 Y8.251269035532996
G1 X230.70050761421322 Y8.251269035532996
G1 X230.70050761421322 Y78.45431472081218
G1 Z-6 F500
G1 X8.096446700507615 Y78.45431472081218 F550
G1 X8.096446700507615 Y62.401015228426395
G1 X8.096446700507615 Y43.35279187817258
G1 X8.096446700507615 Y24.30203045685279
G1 X8.096446700507615 Y8.251269035532996
G1 X230.70050761421322 Y8.251269035532996
G1 X230.70050761421322 Y78.45431472081218
G1 Z-7.5 F500
G1 X8.096446700507615 Y78.45431472081218 F550
G1 X8.096446700507615 Y62.401015228426395
G1 X8.096446700507615 Y43.35279187817258
G1 X8.096446700507615 Y24.30203045685279
G1 X8.096446700507615 Y8.251269035532996
G1 X230.70050761421322 Y8.251269035532996
G1 X230.70050761421322 Y78.45431472081218
G1 Z-9 F500
G1 X8.096446700507615 Y78.45431472081218 F550
G1 X8.096446700507615 Y62.401015228426395
G1 X8.096446700507615 Y43.35279187817258
G1 X8.096446700507615 Y24.30203045685279
G1 X8.096446700507615 Y8.251269035532996
G1 X230.70050761421322 Y8.251269035532996
G1 X230.70050761421322 Y78.45431472081218
G1 Z-10.5 F500
G1 X8.096446700507615 Y78.45431472081218 F550
G1 X8.096446700507615 Y62.401015228426395
G1 X8.096446700507615 Y43.35279187817258
G1 X8.096446700507615 Y24.30203045685279
G1 X8.096446700507615 Y8.251269035532996
G1 X230.70050761421322 Y8.251269035532996
G1 X230.70050761421322 Y78.45431472081218
G1 Z-12 F500
G1 X8.096446700507615 Y78.45431472081218 F550
G1 X8.096446700507615 Y62.401015228426395
G1 X8.096446700507615 Y43.35279187817258
G1 X8.096446700507615 Y24.30203045685279
G1 X8.096446700507615 Y8.251269035532996
G1 X230.70050761421322 Y8.251269035532996
G1 X230.70050761421322 Y78.45431472081218
G1 Z-13.5 F500
G1 X8.096446700507615 Y78.45431472081218 F550
G1 X8.096446700507615 Y62.401015228426395
G1 X8.096446700507615 Y43.35279187817258
G1 X8.096446700507615 Y24.30203045685279
G1 X8.096446700507615 Y8.251269035532996
G1 X230.70050761421322 Y8.251269035532996
G1 X230.70050761421322 Y78.45431472081218
G1 Z-15 F500
G1 X8.096446700507615 Y78.45431472081218 F550
G1 X8.096446700507615 Y62.401015228426395
G1 X8.096446700507615 Y43.35279187817258
G1 X8.096446700507615 Y24.30203045685279
G1 X8.096446700507615 Y8.251269035532996
G1 X230.70050761421322 Y8.251269035532996
G1 X230.70050761421322 Y78.45431472081218
G1 Z-16.5 F500
G1 X8.096446700507615 Y78.45431472081218 F550
G1 X8.096446700507615 Y62.401015228426395
G1 X8.096446700507615 Y43.35279187817258
G1 X8.096446700507615 Y24.30203045685279
G1 X8.096446700507615 Y8.251269035532996
G1 X230.70050761421322 Y8.251269035532996
G1 X230.70050761421322 Y78.45431472081218
G1 Z-18 F500
G1 X8.096446700507615 Y78.45431472081218 F550
G1 X8.096446700507615 Y62.401015228426395
G1 X8.096446700507615 Y43.35279187817258
G1 X8.096446700507615 Y24.30203045685279
G1 X8.096446700507615 Y8.251269035532996
G1 X230.70050761421322 Y8.251269035532996
G1 X230.70050761421322 Y78.45431472081218
G1 Z-19 F500
G1 X8.096446700507615 Y78.45431472081218 F550
G1 X8.096446700507615 Y62.401015228426395
G1 X8.096446700507615 Y43.35279187817258
G1 X8.096446700507615 Y24.30203045685279
G1 X8.096446700507615 Y8.251269035532996
G1 X230.70050761421322 Y8.251269035532996
G1 X230.70050761421322 Y78.45431472081218
G0 Z15
M5
M30
