(Generated by PartKam Version 0.05)

G21 G90 G40

(profile 2)
G0 Z15
T0 M6
G17
M3
G0 X230.94746192893402 Y78.5494923857868
G1 Z-1.5 F500
G1 X8.345177664974619 Y78.5482233502538 F550
G1 X8.345177664974619 Y62.49746192893401
G1 X8.345177664974619 Y43.44923857868021
G1 X8.345177664974619 Y24.39593908629442
G1 X8.345177664974619 Y8.345177664974619
G1 X230.94670050761422 Y8.345177664974619
G1 X230.94670050761422 Y78.5482233502538
G1 Z-3 F500
G1 X8.345177664974619 Y78.5482233502538 F550
G1 X8.345177664974619 Y62.49746192893401
G1 X8.345177664974619 Y43.44923857868021
G1 X8.345177664974619 Y24.39593908629442
G1 X8.345177664974619 Y8.345177664974619
G1 X230.94670050761422 Y8.345177664974619
G1 X230.94670050761422 Y78.5482233502538
G1 Z-4.5 F500
G1 X8.345177664974619 Y78.5482233502538 F550
G1 X8.345177664974619 Y62.49746192893401
G1 X8.345177664974619 Y43.44923857868021
G1 X8.345177664974619 Y24.39593908629442
G1 X8.345177664974619 Y8.345177664974619
G1 X230.94670050761422 Y8.345177664974619
G1 X230.94670050761422 Y78.5482233502538
G1 Z-6 F500
G1 X8.345177664974619 Y78.5482233502538 F550
G1 X8.345177664974619 Y62.49746192893401
G1 X8.345177664974619 Y43.44923857868021
G1 X8.345177664974619 Y24.39593908629442
G1 X8.345177664974619 Y8.345177664974619
G1 X230.94670050761422 Y8.345177664974619
G1 X230.94670050761422 Y78.5482233502538
G1 Z-7.5 F500
G1 X8.345177664974619 Y78.5482233502538 F550
G1 X8.345177664974619 Y62.49746192893401
G1 X8.345177664974619 Y43.44923857868021
G1 X8.345177664974619 Y24.39593908629442
G1 X8.345177664974619 Y8.345177664974619
G1 X230.94670050761422 Y8.345177664974619
G1 X230.94670050761422 Y78.5482233502538
G1 Z-9 F500
G1 X8.345177664974619 Y78.5482233502538 F550
G1 X8.345177664974619 Y62.49746192893401
G1 X8.345177664974619 Y43.44923857868021
G1 X8.345177664974619 Y24.39593908629442
G1 X8.345177664974619 Y8.345177664974619
G1 X230.94670050761422 Y8.345177664974619
G1 X230.94670050761422 Y78.5482233502538
G1 Z-10.5 F500
G1 X8.345177664974619 Y78.5482233502538 F550
G1 X8.345177664974619 Y62.49746192893401
G1 X8.345177664974619 Y43.44923857868021
G1 X8.345177664974619 Y24.39593908629442
G1 X8.345177664974619 Y8.345177664974619
G1 X230.94670050761422 Y8.345177664974619
G1 X230.94670050761422 Y78.5482233502538
G1 Z-12 F500
G1 X8.345177664974619 Y78.5482233502538 F550
G1 X8.345177664974619 Y62.49746192893401
G1 X8.345177664974619 Y43.44923857868021
G1 X8.345177664974619 Y24.39593908629442
G1 X8.345177664974619 Y8.345177664974619
G1 X230.94670050761422 Y8.345177664974619
G1 X230.94670050761422 Y78.5482233502538
G1 Z-13.5 F500
G1 X8.345177664974619 Y78.5482233502538 F550
G1 X8.345177664974619 Y62.49746192893401
G1 X8.345177664974619 Y43.44923857868021
G1 X8.345177664974619 Y24.39593908629442
G1 X8.345177664974619 Y8.345177664974619
G1 X230.94670050761422 Y8.345177664974619
G1 X230.94670050761422 Y78.5482233502538
G1 Z-15 F500
G1 X8.345177664974619 Y78.5482233502538 F550
G1 X8.345177664974619 Y62.49746192893401
G1 X8.345177664974619 Y43.44923857868021
G1 X8.345177664974619 Y24.39593908629442
G1 X8.345177664974619 Y8.345177664974619
G1 X230.94670050761422 Y8.345177664974619
G1 X230.94670050761422 Y78.5482233502538
G1 Z-16.5 F500
G1 X8.345177664974619 Y78.5482233502538 F550
G1 X8.345177664974619 Y62.49746192893401
G1 X8.345177664974619 Y43.44923857868021
G1 X8.345177664974619 Y24.39593908629442
G1 X8.345177664974619 Y8.345177664974619
G1 X230.94670050761422 Y8.345177664974619
G1 X230.94670050761422 Y78.5482233502538
G1 Z-18 F500
G1 X8.345177664974619 Y78.5482233502538 F550
G1 X8.345177664974619 Y62.49746192893401
G1 X8.345177664974619 Y43.44923857868021
G1 X8.345177664974619 Y24.39593908629442
G1 X8.345177664974619 Y8.345177664974619
G1 X230.94670050761422 Y8.345177664974619
G1 X230.94670050761422 Y78.5482233502538
G1 Z-19 F500
G1 X8.345177664974619 Y78.5482233502538 F550
G1 X8.345177664974619 Y62.49746192893401
G1 X8.345177664974619 Y43.44923857868021
G1 X8.345177664974619 Y24.39593908629442
G1 X8.345177664974619 Y8.345177664974619
G1 X230.94670050761422 Y8.345177664974619
G1 X230.94670050761422 Y78.5482233502538

(Outside Profile)
G0 Z15
G0 X236.94746192893402 Y89.54746192893401
G1 Z-1.5 F500
G1 X231.9467005076142 Y89.5482233502538 F550
G1 X231.9467005076142 Y89.5482233502538
G1 X156.94670050761422 Y89.5482233502538
G1 X151.94670050761422 Y89.5482233502538
G1 X86.94670050761422 Y89.5482233502538
G1 X81.94670050761422 Y89.5482233502538
G1 X76.94670050761421 Y89.5482233502538
G1 X71.94670050761421 Y89.5482233502538
G1 X2.3477157360406093 Y89.5482233502538
G3 X2.213197969543147 Y89.54568527918782 I0 J-3
G1 X2.0558375634517767 Y89.53807106598985
G3 X1.8451776649746194 Y89.5228426395939 I0.13451776649746194 J-2.9974619289340105
G1 X1.6903553299492384 Y89.50253807106598
G3 X1.4416243654822336 Y89.46446700507614 I0.3426395939086294 J-2.9796954314720816
G1 X1.2868020304568528 Y89.43401015228426
G3 X1.0812182741116751 Y89.38324873096447 I0.5913705583756345 J-2.9416243654822334
G1 X0.9289340101522843 Y89.34263959390863
G3 X0.6751269035532994 Y89.26142131979695 I0.799492385786802 J-2.8908629441624365
G1 X0.5279187817258884 Y89.20558375634516
G3 X0.33248730964467005 Y89.12436548223351 I1.050761421319797 J-2.8096446700507616
G1 X0.1903553299492386 Y89.05837563451776
G3 X-0.030456852791878174 Y88.94670050761421 I1.248730964467005 J-2.7284263959390866
G1 X-0.16751269035532995 Y88.86802030456852
G3 X-0.35786802030456855 Y88.751269035533 I1.469543147208122 J-2.6142131979695433
G1 X-0.48984771573604063 Y88.66497461928932
G3 X-0.6979695431472082 Y88.51269035532995 I1.6598984771573604 J-2.5
G1 X-0.8223350253807106 Y88.41370558375635
G3 X-0.9771573604060914 Y88.28426395939087 I1.8705583756345179 J-2.345177664974619
G1 X-1.0913705583756346 Y88.17766497461929
G3 X-1.2842639593908631 Y87.98730964467005 I2.0228426395939088 J-2.215736040609137
G1 X-1.3883248730964468 Y87.87055837563452
G3 X-1.5203045685279188 Y87.71573604060913 I2.215736040609137 J-2.0228426395939088
G1 X-1.619289340101523 Y87.59390862944161
G3 X-1.7715736040609138 Y87.38324873096447 I2.345177664974619 J-1.8705583756345179
G1 X-1.8578680203045685 Y87.251269035533
G3 X-1.9746192893401016 Y87.06345177664974 I2.5 J-1.6598984771573604
G1 X-2.050761421319797 Y86.92639593908629
G1 X-2.063451776649746 Y86.90609137055837
G3 X-2.16497461928934 Y86.70304568527919 I2.626903553299492 J-1.4492385786802031
G1 X-2.228426395939086 Y86.56091370558374
G3 X-2.312182741116751 Y86.36548223350253 I2.7284263959390866 J-1.248730964467005
G1 X-2.365482233502538 Y86.21827411167513
G3 X-2.449238578680203 Y85.96446700507614 I2.8096446700507616 J-1.050761421319797
G1 X-2.489847715736041 Y85.81218274111676
G3 X-2.5406091370558377 Y85.60659898477157 I2.8908629441624365 J-0.799492385786802
G1 X-2.5710659898477157 Y85.4517766497462
G3 X-2.6091370558375635 Y85.20304568527919 I2.9416243654822334 J-0.5913705583756345
G1 X-2.626903553299492 Y85.0482233502538
G3 X-2.6446700507614214 Y84.81979695431471 I2.9796954314720816 J-0.3426395939086294
G1 X-2.6522842639593907 Y84.66243654822335
G3 X-2.654822335025381 Y84.5482233502538 I2.9974619289340105 J-0.11421319796954314
G1 X-2.654822335025381 Y82.00253807106598
G1 X-2.654822335025381 Y27.002538071065988
G1 X-2.654822335025381 Y22.002538071065988
G1 X-2.654822335025381 Y7.00253807106599
G1 X-2.654822335025381 Y2.3477157360406093
G1 X-2.654822335025381 Y2.345177664974619
G3 X-2.6522842639593907 Y2.213197969543147 I3 J0
G1 X-2.6446700507614214 Y2.0558375634517767
G3 X-2.6421319796954315 Y2.00253807106599 I2.9974619289340105 J0.13451776649746194
G3 X-2.626903553299492 Y1.8477157360406091 I2.99492385786802 J0.18781725888324874
G1 X-2.6091370558375635 Y1.6903553299492384
G3 X-2.5710659898477157 Y1.4416243654822336 I2.9796954314720816 J0.3426395939086294
G1 X-2.5406091370558377 Y1.2893401015228425
G3 X-2.489847715736041 Y1.0812182741116751 I2.9416243654822334 J0.5913705583756345
G1 X-2.449238578680203 Y0.9289340101522843
G3 X-2.365482233502538 Y0.6776649746192893 I2.8908629441624365 J0.799492385786802
G1 X-2.312182741116751 Y0.5304568527918782
G3 X-2.228426395939086 Y0.33248730964467005 I2.8096446700507616 J1.050761421319797
G1 X-2.16497461928934 Y0.1903553299492386
G3 X-2.050761421319797 Y-0.030456852791878174 I2.7284263959390866 J1.248730964467005
G1 X-1.9746192893401016 Y-0.16751269035532995
G3 X-1.8578680203045685 Y-0.35786802030456855 I2.6142131979695433 J1.469543147208122
G1 X-1.7715736040609138 Y-0.4873096446700508
G3 X-1.619289340101523 Y-0.6979695431472082 I2.5 J1.6598984771573604
G1 X-1.5203045685279188 Y-0.8197969543147209
G3 X-1.3883248730964468 Y-0.9746192893401016 I2.345177664974619 J1.8705583756345179
G1 X-1.2842639593908631 Y-1.0913705583756346
G3 X-1.0913705583756346 Y-1.281725888324873 I2.215736040609137 J2.0228426395939088
G1 X-0.9771573604060914 Y-1.3883248730964468
G3 X-0.8223350253807106 Y-1.5203045685279188 I2.0228426395939088 J2.215736040609137
G1 X-0.6979695431472082 Y-1.6167512690355328
G3 X-0.48984771573604063 Y-1.7715736040609138 I1.8705583756345179 J2.345177664974619
G1 X-0.35786802030456855 Y-1.8578680203045685
G3 X-0.16751269035532995 Y-1.9746192893401016 I1.6598984771573604 J2.5
G1 X-0.030456852791878174 Y-2.050761421319797
G3 X0.1903553299492386 Y-2.1624365482233503 I1.469543147208122 J2.6142131979695433
G1 X0.33248730964467005 Y-2.228426395939086
G3 X0.5279187817258884 Y-2.3096446700507616 I1.248730964467005 J2.7284263959390866
G1 X0.6751269035532994 Y-2.365482233502538
G3 X0.9289340101522843 Y-2.446700507614213 I1.050761421319797 J2.8096446700507616
G1 X1.0812182741116751 Y-2.489847715736041
G3 X1.2868020304568528 Y-2.5380710659898478 I0.799492385786802 J2.8908629441624365
G1 X1.4416243654822336 Y-2.5685279187817263
G3 X1.6903553299492384 Y-2.6091370558375635 I0.5913705583756345 J2.9416243654822334
G1 X1.8451776649746194 Y-2.626903553299492
G3 X2.0558375634517767 Y-2.6446700507614214 I0.3426395939086294 J2.9796954314720816
G1 X2.213197969543147 Y-2.6497461928934007
G3 X2.3477157360406093 Y-2.654822335025381 I0.13451776649746194 J2.9974619289340105
G1 X69.83756345177665 Y-2.6522842639593907
G1 X74.83756345177665 Y-2.6522842639593907
G1 X119.83756345177666 Y-2.6522842639593907
G1 X124.83756345177666 Y-2.6522842639593907
G1 X149.83756345177665 Y-2.6522842639593907
G1 X154.83756345177665 Y-2.6522842639593907
G1 X229.83756345177665 Y-2.6522842639593907
G1 X234.83756345177665 Y-2.6522842639593907
G1 X236.9467005076142 Y-2.6522842639593907
G3 X237.06345177664974 Y-2.6497461928934007 I0 J3
G1 X237.21827411167513 Y-2.6446700507614214
G3 X237.4467005076142 Y-2.626903553299492 I-0.11421319796954314 J2.9974619289340105
G1 X237.60406091370558 Y-2.6091370558375635
G3 X237.8502538071066 Y-2.5685279187817263 I-0.3426395939086294 J2.9796954314720816
G1 X238.005076142132 Y-2.5380710659898478
G3 X238.21319796954313 Y-2.489847715736041 I-0.5913705583756345 J2.9416243654822334
G1 X238.36548223350252 Y-2.446700507614213
G3 X238.61675126903552 Y-2.365482233502538 I-0.799492385786802 J2.8908629441624365
G1 X238.76395939086294 Y-2.3096446700507616
G3 X238.96192893401013 Y-2.228426395939086 I-1.050761421319797 J2.8096446700507616
G1 X239.10406091370558 Y-2.1624365482233503
G3 X239.3248730964467 Y-2.050761421319797 I-1.248730964467005 J2.7284263959390866
G1 X239.46192893401016 Y-1.9746192893401016
G3 X239.6522842639594 Y-1.8578680203045685 I-1.469543147208122 J2.6142131979695433
G1 X239.78172588832484 Y-1.7715736040609138
G3 X239.99238578680203 Y-1.6167512690355328 I-1.6598984771573604 J2.5
G1 X240.11421319796955 Y-1.5203045685279188
G3 X240.26903553299493 Y-1.3883248730964468 I-1.8705583756345179 J2.345177664974619
G1 X240.38578680203045 Y-1.281725888324873
G3 X240.57614213197968 Y-1.0913705583756346 I-2.0228426395939088 J2.215736040609137
G1 X240.68274111675126 Y-0.9746192893401016
G3 X240.8147208121827 Y-0.8197969543147209 I-2.215736040609137 J2.0228426395939088
G1 X240.91116751269033 Y-0.6979695431472082
G3 X241.06345177664974 Y-0.4873096446700508 I-2.345177664974619 J1.8705583756345179
G1 X241.15228426395936 Y-0.35786802030456855
G3 X241.26649746192894 Y-0.16751269035532995 I-2.5 J1.6598984771573604
G1 X241.34517766497464 Y-0.030456852791878174
G3 X241.45685279187816 Y0.1903553299492386 I-2.6142131979695433 J1.469543147208122
G1 X241.5228426395939 Y0.33248730964467005
G3 X241.60406091370558 Y0.5304568527918782 I-2.7284263959390866 J1.248730964467005
G1 X241.65989847715736 Y0.6776649746192893
G3 X241.74111675126903 Y0.9289340101522843 I-2.8096446700507616 J1.050761421319797
G1 X241.78426395939087 Y1.0812182741116751
G3 X241.83248730964468 Y1.2893401015228425 I-2.8908629441624365 J0.799492385786802
G1 X241.86294416243655 Y1.4416243654822336
G3 X241.9035532994924 Y1.6903553299492384 I-2.9416243654822334 J0.5913705583756345
G1 X241.92131979695432 Y1.8477157360406091
G3 X241.93654822335023 Y2.0558375634517767 I-2.9796954314720816 J0.3426395939086294
G1 X241.9441624365482 Y2.213197969543147
G3 X241.9467005076142 Y2.345177664974619 I-2.9974619289340105 J0.13451776649746194
G1 X241.9467005076142 Y84.5482233502538
G3 X241.9441624365482 Y84.68020304568527 I-3 J0
G1 X241.93654822335023 Y84.83756345177666
G3 X241.92131979695432 Y85.0482233502538 I-2.9974619289340105 J-0.13451776649746194
G1 X241.9035532994924 Y85.20304568527919
G3 X241.86294416243655 Y85.4517766497462 I-2.9796954314720816 J-0.3426395939086294
G1 X241.83248730964468 Y85.60659898477157
G3 X241.78426395939087 Y85.81218274111676 I-2.9416243654822334 J-0.5913705583756345
G1 X241.74111675126903 Y85.96446700507614
G3 X241.65989847715736 Y86.21827411167513 I-2.8908629441624365 J-0.799492385786802
G1 X241.60406091370558 Y86.36548223350253
G3 X241.5228426395939 Y86.56091370558374 I-2.8096446700507616 J-1.050761421319797
G1 X241.45685279187816 Y86.70304568527919
G3 X241.34517766497464 Y86.92639593908629 I-2.7284263959390866 J-1.248730964467005
G1 X241.26649746192894 Y87.06345177664974
G3 X241.15228426395936 Y87.251269035533 I-2.6142131979695433 J-1.469543147208122
G1 X241.06345177664974 Y87.38324873096447
G3 X240.91116751269033 Y87.59390862944161 I-2.5 J-1.6598984771573604
G1 X240.8147208121827 Y87.71573604060913
G3 X240.68274111675126 Y87.87055837563452 I-2.345177664974619 J-1.8705583756345179
G1 X240.57614213197968 Y87.98730964467005
G3 X240.38578680203045 Y88.17766497461929 I-2.215736040609137 J-2.0228426395939088
G1 X240.26903553299493 Y88.28426395939087
G3 X240.11421319796955 Y88.41370558375635 I-2.0228426395939088 J-2.215736040609137
G1 X239.99238578680203 Y88.51269035532995
G3 X239.78172588832484 Y88.66497461928932 I-1.8705583756345179 J-2.345177664974619
G1 X239.6522842639594 Y88.751269035533
G3 X239.46192893401016 Y88.86802030456852 I-1.6598984771573604 J-2.5
G1 X239.3248730964467 Y88.94670050761421
G3 X239.10406091370558 Y89.05837563451776 I-1.469543147208122 J-2.6142131979695433
G1 X238.96192893401013 Y89.12436548223351
G3 X238.76395939086294 Y89.20558375634516 I-1.248730964467005 J-2.7284263959390866
G1 X238.61675126903552 Y89.26142131979695
G3 X238.36548223350252 Y89.34263959390863 I-1.050761421319797 J-2.8096446700507616
G1 X238.21319796954313 Y89.38324873096447
G3 X238.005076142132 Y89.43401015228426 I-0.799492385786802 J-2.8908629441624365
G1 X237.8502538071066 Y89.46446700507614
G3 X237.60406091370558 Y89.50253807106598 I-0.5913705583756345 J-2.9416243654822334
G1 X237.4467005076142 Y89.5228426395939
G3 X237.21827411167513 Y89.53807106598985 I-0.3426395939086294 J-2.9796954314720816
G1 X237.06345177664974 Y89.54568527918782
G3 X236.9467005076142 Y89.5482233502538 I-0.11421319796954314 J-2.9974619289340105
G1 Z-3 F500
G1 X231.9467005076142 Y89.5482233502538 F550
G1 X231.9467005076142 Y89.5482233502538
G1 X156.94670050761422 Y89.5482233502538
G1 X151.94670050761422 Y89.5482233502538
G1 X86.94670050761422 Y89.5482233502538
G1 X81.94670050761422 Y89.5482233502538
G1 X76.94670050761421 Y89.5482233502538
G1 X71.94670050761421 Y89.5482233502538
G1 X2.3477157360406093 Y89.5482233502538
G3 X2.213197969543147 Y89.54568527918782 I0 J-3
G1 X2.0558375634517767 Y89.53807106598985
G3 X1.8451776649746194 Y89.5228426395939 I0.13451776649746194 J-2.9974619289340105
G1 X1.6903553299492384 Y89.50253807106598
G3 X1.4416243654822336 Y89.46446700507614 I0.3426395939086294 J-2.9796954314720816
G1 X1.2868020304568528 Y89.43401015228426
G3 X1.0812182741116751 Y89.38324873096447 I0.5913705583756345 J-2.9416243654822334
G1 X0.9289340101522843 Y89.34263959390863
G3 X0.6751269035532994 Y89.26142131979695 I0.799492385786802 J-2.8908629441624365
G1 X0.5279187817258884 Y89.20558375634516
G3 X0.33248730964467005 Y89.12436548223351 I1.050761421319797 J-2.8096446700507616
G1 X0.1903553299492386 Y89.05837563451776
G3 X-0.030456852791878174 Y88.94670050761421 I1.248730964467005 J-2.7284263959390866
G1 X-0.16751269035532995 Y88.86802030456852
G3 X-0.35786802030456855 Y88.751269035533 I1.469543147208122 J-2.6142131979695433
G1 X-0.48984771573604063 Y88.66497461928932
G3 X-0.6979695431472082 Y88.51269035532995 I1.6598984771573604 J-2.5
G1 X-0.8223350253807106 Y88.41370558375635
G3 X-0.9771573604060914 Y88.28426395939087 I1.8705583756345179 J-2.345177664974619
G1 X-1.0913705583756346 Y88.17766497461929
G3 X-1.2842639593908631 Y87.98730964467005 I2.0228426395939088 J-2.215736040609137
G1 X-1.3883248730964468 Y87.87055837563452
G3 X-1.5203045685279188 Y87.71573604060913 I2.215736040609137 J-2.0228426395939088
G1 X-1.619289340101523 Y87.59390862944161
G3 X-1.7715736040609138 Y87.38324873096447 I2.345177664974619 J-1.8705583756345179
G1 X-1.8578680203045685 Y87.251269035533
G3 X-1.9746192893401016 Y87.06345177664974 I2.5 J-1.6598984771573604
G1 X-2.050761421319797 Y86.92639593908629
G1 X-2.063451776649746 Y86.90609137055837
G3 X-2.16497461928934 Y86.70304568527919 I2.626903553299492 J-1.4492385786802031
G1 X-2.228426395939086 Y86.56091370558374
G3 X-2.312182741116751 Y86.36548223350253 I2.7284263959390866 J-1.248730964467005
G1 X-2.365482233502538 Y86.21827411167513
G3 X-2.449238578680203 Y85.96446700507614 I2.8096446700507616 J-1.050761421319797
G1 X-2.489847715736041 Y85.81218274111676
G3 X-2.5406091370558377 Y85.60659898477157 I2.8908629441624365 J-0.799492385786802
G1 X-2.5710659898477157 Y85.4517766497462
G3 X-2.6091370558375635 Y85.20304568527919 I2.9416243654822334 J-0.5913705583756345
G1 X-2.626903553299492 Y85.0482233502538
G3 X-2.6446700507614214 Y84.81979695431471 I2.9796954314720816 J-0.3426395939086294
G1 X-2.6522842639593907 Y84.66243654822335
G3 X-2.654822335025381 Y84.5482233502538 I2.9974619289340105 J-0.11421319796954314
G1 X-2.654822335025381 Y82.00253807106598
G1 X-2.654822335025381 Y27.002538071065988
G1 X-2.654822335025381 Y22.002538071065988
G1 X-2.654822335025381 Y7.00253807106599
G1 X-2.654822335025381 Y2.3477157360406093
G1 X-2.654822335025381 Y2.345177664974619
G3 X-2.6522842639593907 Y2.213197969543147 I3 J0
G1 X-2.6446700507614214 Y2.0558375634517767
G3 X-2.6421319796954315 Y2.00253807106599 I2.9974619289340105 J0.13451776649746194
G3 X-2.626903553299492 Y1.8477157360406091 I2.99492385786802 J0.18781725888324874
G1 X-2.6091370558375635 Y1.6903553299492384
G3 X-2.5710659898477157 Y1.4416243654822336 I2.9796954314720816 J0.3426395939086294
G1 X-2.5406091370558377 Y1.2893401015228425
G3 X-2.489847715736041 Y1.0812182741116751 I2.9416243654822334 J0.5913705583756345
G1 X-2.449238578680203 Y0.9289340101522843
G3 X-2.365482233502538 Y0.6776649746192893 I2.8908629441624365 J0.799492385786802
G1 X-2.312182741116751 Y0.5304568527918782
G3 X-2.228426395939086 Y0.33248730964467005 I2.8096446700507616 J1.050761421319797
G1 X-2.16497461928934 Y0.1903553299492386
G3 X-2.050761421319797 Y-0.030456852791878174 I2.7284263959390866 J1.248730964467005
G1 X-1.9746192893401016 Y-0.16751269035532995
G3 X-1.8578680203045685 Y-0.35786802030456855 I2.6142131979695433 J1.469543147208122
G1 X-1.7715736040609138 Y-0.4873096446700508
G3 X-1.619289340101523 Y-0.6979695431472082 I2.5 J1.6598984771573604
G1 X-1.5203045685279188 Y-0.8197969543147209
G3 X-1.3883248730964468 Y-0.9746192893401016 I2.345177664974619 J1.8705583756345179
G1 X-1.2842639593908631 Y-1.0913705583756346
G3 X-1.0913705583756346 Y-1.281725888324873 I2.215736040609137 J2.0228426395939088
G1 X-0.9771573604060914 Y-1.3883248730964468
G3 X-0.8223350253807106 Y-1.5203045685279188 I2.0228426395939088 J2.215736040609137
G1 X-0.6979695431472082 Y-1.6167512690355328
G3 X-0.48984771573604063 Y-1.7715736040609138 I1.8705583756345179 J2.345177664974619
G1 X-0.35786802030456855 Y-1.8578680203045685
G3 X-0.16751269035532995 Y-1.9746192893401016 I1.6598984771573604 J2.5
G1 X-0.030456852791878174 Y-2.050761421319797
G3 X0.1903553299492386 Y-2.1624365482233503 I1.469543147208122 J2.6142131979695433
G1 X0.33248730964467005 Y-2.228426395939086
G3 X0.5279187817258884 Y-2.3096446700507616 I1.248730964467005 J2.7284263959390866
G1 X0.6751269035532994 Y-2.365482233502538
G3 X0.9289340101522843 Y-2.446700507614213 I1.050761421319797 J2.8096446700507616
G1 X1.0812182741116751 Y-2.489847715736041
G3 X1.2868020304568528 Y-2.5380710659898478 I0.799492385786802 J2.8908629441624365
G1 X1.4416243654822336 Y-2.5685279187817263
G3 X1.6903553299492384 Y-2.6091370558375635 I0.5913705583756345 J2.9416243654822334
G1 X1.8451776649746194 Y-2.626903553299492
G3 X2.0558375634517767 Y-2.6446700507614214 I0.3426395939086294 J2.9796954314720816
G1 X2.213197969543147 Y-2.6497461928934007
G3 X2.3477157360406093 Y-2.654822335025381 I0.13451776649746194 J2.9974619289340105
G1 X69.83756345177665 Y-2.6522842639593907
G1 X74.83756345177665 Y-2.6522842639593907
G1 X119.83756345177666 Y-2.6522842639593907
G1 X124.83756345177666 Y-2.6522842639593907
G1 X149.83756345177665 Y-2.6522842639593907
G1 X154.83756345177665 Y-2.6522842639593907
G1 X229.83756345177665 Y-2.6522842639593907
G1 X234.83756345177665 Y-2.6522842639593907
G1 X236.9467005076142 Y-2.6522842639593907
G3 X237.06345177664974 Y-2.6497461928934007 I0 J3
G1 X237.21827411167513 Y-2.6446700507614214
G3 X237.4467005076142 Y-2.626903553299492 I-0.11421319796954314 J2.9974619289340105
G1 X237.60406091370558 Y-2.6091370558375635
G3 X237.8502538071066 Y-2.5685279187817263 I-0.3426395939086294 J2.9796954314720816
G1 X238.005076142132 Y-2.5380710659898478
G3 X238.21319796954313 Y-2.489847715736041 I-0.5913705583756345 J2.9416243654822334
G1 X238.36548223350252 Y-2.446700507614213
G3 X238.61675126903552 Y-2.365482233502538 I-0.799492385786802 J2.8908629441624365
G1 X238.76395939086294 Y-2.3096446700507616
G3 X238.96192893401013 Y-2.228426395939086 I-1.050761421319797 J2.8096446700507616
G1 X239.10406091370558 Y-2.1624365482233503
G3 X239.3248730964467 Y-2.050761421319797 I-1.248730964467005 J2.7284263959390866
G1 X239.46192893401016 Y-1.9746192893401016
G3 X239.6522842639594 Y-1.8578680203045685 I-1.469543147208122 J2.6142131979695433
G1 X239.78172588832484 Y-1.7715736040609138
G3 X239.99238578680203 Y-1.6167512690355328 I-1.6598984771573604 J2.5
G1 X240.11421319796955 Y-1.5203045685279188
G3 X240.26903553299493 Y-1.3883248730964468 I-1.8705583756345179 J2.345177664974619
G1 X240.38578680203045 Y-1.281725888324873
G3 X240.57614213197968 Y-1.0913705583756346 I-2.0228426395939088 J2.215736040609137
G1 X240.68274111675126 Y-0.9746192893401016
G3 X240.8147208121827 Y-0.8197969543147209 I-2.215736040609137 J2.0228426395939088
G1 X240.91116751269033 Y-0.6979695431472082
G3 X241.06345177664974 Y-0.4873096446700508 I-2.345177664974619 J1.8705583756345179
G1 X241.15228426395936 Y-0.35786802030456855
G3 X241.26649746192894 Y-0.16751269035532995 I-2.5 J1.6598984771573604
G1 X241.34517766497464 Y-0.030456852791878174
G3 X241.45685279187816 Y0.1903553299492386 I-2.6142131979695433 J1.469543147208122
G1 X241.5228426395939 Y0.33248730964467005
G3 X241.60406091370558 Y0.5304568527918782 I-2.7284263959390866 J1.248730964467005
G1 X241.65989847715736 Y0.6776649746192893
G3 X241.74111675126903 Y0.9289340101522843 I-2.8096446700507616 J1.050761421319797
G1 X241.78426395939087 Y1.0812182741116751
G3 X241.83248730964468 Y1.2893401015228425 I-2.8908629441624365 J0.799492385786802
G1 X241.86294416243655 Y1.4416243654822336
G3 X241.9035532994924 Y1.6903553299492384 I-2.9416243654822334 J0.5913705583756345
G1 X241.92131979695432 Y1.8477157360406091
G3 X241.93654822335023 Y2.0558375634517767 I-2.9796954314720816 J0.3426395939086294
G1 X241.9441624365482 Y2.213197969543147
G3 X241.9467005076142 Y2.345177664974619 I-2.9974619289340105 J0.13451776649746194
G1 X241.9467005076142 Y84.5482233502538
G3 X241.9441624365482 Y84.68020304568527 I-3 J0
G1 X241.93654822335023 Y84.83756345177666
G3 X241.92131979695432 Y85.0482233502538 I-2.9974619289340105 J-0.13451776649746194
G1 X241.9035532994924 Y85.20304568527919
G3 X241.86294416243655 Y85.4517766497462 I-2.9796954314720816 J-0.3426395939086294
G1 X241.83248730964468 Y85.60659898477157
G3 X241.78426395939087 Y85.81218274111676 I-2.9416243654822334 J-0.5913705583756345
G1 X241.74111675126903 Y85.96446700507614
G3 X241.65989847715736 Y86.21827411167513 I-2.8908629441624365 J-0.799492385786802
G1 X241.60406091370558 Y86.36548223350253
G3 X241.5228426395939 Y86.56091370558374 I-2.8096446700507616 J-1.050761421319797
G1 X241.45685279187816 Y86.70304568527919
G3 X241.34517766497464 Y86.92639593908629 I-2.7284263959390866 J-1.248730964467005
G1 X241.26649746192894 Y87.06345177664974
G3 X241.15228426395936 Y87.251269035533 I-2.6142131979695433 J-1.469543147208122
G1 X241.06345177664974 Y87.38324873096447
G3 X240.91116751269033 Y87.59390862944161 I-2.5 J-1.6598984771573604
G1 X240.8147208121827 Y87.71573604060913
G3 X240.68274111675126 Y87.87055837563452 I-2.345177664974619 J-1.8705583756345179
G1 X240.57614213197968 Y87.98730964467005
G3 X240.38578680203045 Y88.17766497461929 I-2.215736040609137 J-2.0228426395939088
G1 X240.26903553299493 Y88.28426395939087
G3 X240.11421319796955 Y88.41370558375635 I-2.0228426395939088 J-2.215736040609137
G1 X239.99238578680203 Y88.51269035532995
G3 X239.78172588832484 Y88.66497461928932 I-1.8705583756345179 J-2.345177664974619
G1 X239.6522842639594 Y88.751269035533
G3 X239.46192893401016 Y88.86802030456852 I-1.6598984771573604 J-2.5
G1 X239.3248730964467 Y88.94670050761421
G3 X239.10406091370558 Y89.05837563451776 I-1.469543147208122 J-2.6142131979695433
G1 X238.96192893401013 Y89.12436548223351
G3 X238.76395939086294 Y89.20558375634516 I-1.248730964467005 J-2.7284263959390866
G1 X238.61675126903552 Y89.26142131979695
G3 X238.36548223350252 Y89.34263959390863 I-1.050761421319797 J-2.8096446700507616
G1 X238.21319796954313 Y89.38324873096447
G3 X238.005076142132 Y89.43401015228426 I-0.799492385786802 J-2.8908629441624365
G1 X237.8502538071066 Y89.46446700507614
G3 X237.60406091370558 Y89.50253807106598 I-0.5913705583756345 J-2.9416243654822334
G1 X237.4467005076142 Y89.5228426395939
G3 X237.21827411167513 Y89.53807106598985 I-0.3426395939086294 J-2.9796954314720816
G1 X237.06345177664974 Y89.54568527918782
G3 X236.9467005076142 Y89.5482233502538 I-0.11421319796954314 J-2.9974619289340105
G1 Z-4.5 F500
G1 X231.9467005076142 Y89.5482233502538 F550
G1 X231.9467005076142 Y89.5482233502538
G1 X156.94670050761422 Y89.5482233502538
G1 X151.94670050761422 Y89.5482233502538
G1 X86.94670050761422 Y89.5482233502538
G1 X81.94670050761422 Y89.5482233502538
G1 X76.94670050761421 Y89.5482233502538
G1 X71.94670050761421 Y89.5482233502538
G1 X2.3477157360406093 Y89.5482233502538
G3 X2.213197969543147 Y89.54568527918782 I0 J-3
G1 X2.0558375634517767 Y89.53807106598985
G3 X1.8451776649746194 Y89.5228426395939 I0.13451776649746194 J-2.9974619289340105
G1 X1.6903553299492384 Y89.50253807106598
G3 X1.4416243654822336 Y89.46446700507614 I0.3426395939086294 J-2.9796954314720816
G1 X1.2868020304568528 Y89.43401015228426
G3 X1.0812182741116751 Y89.38324873096447 I0.5913705583756345 J-2.9416243654822334
G1 X0.9289340101522843 Y89.34263959390863
G3 X0.6751269035532994 Y89.26142131979695 I0.799492385786802 J-2.8908629441624365
G1 X0.5279187817258884 Y89.20558375634516
G3 X0.33248730964467005 Y89.12436548223351 I1.050761421319797 J-2.8096446700507616
G1 X0.1903553299492386 Y89.05837563451776
G3 X-0.030456852791878174 Y88.94670050761421 I1.248730964467005 J-2.7284263959390866
G1 X-0.16751269035532995 Y88.86802030456852
G3 X-0.35786802030456855 Y88.751269035533 I1.469543147208122 J-2.6142131979695433
G1 X-0.48984771573604063 Y88.66497461928932
G3 X-0.6979695431472082 Y88.51269035532995 I1.6598984771573604 J-2.5
G1 X-0.8223350253807106 Y88.41370558375635
G3 X-0.9771573604060914 Y88.28426395939087 I1.8705583756345179 J-2.345177664974619
G1 X-1.0913705583756346 Y88.17766497461929
G3 X-1.2842639593908631 Y87.98730964467005 I2.0228426395939088 J-2.215736040609137
G1 X-1.3883248730964468 Y87.87055837563452
G3 X-1.5203045685279188 Y87.71573604060913 I2.215736040609137 J-2.0228426395939088
G1 X-1.619289340101523 Y87.59390862944161
G3 X-1.7715736040609138 Y87.38324873096447 I2.345177664974619 J-1.8705583756345179
G1 X-1.8578680203045685 Y87.251269035533
G3 X-1.9746192893401016 Y87.06345177664974 I2.5 J-1.6598984771573604
G1 X-2.050761421319797 Y86.92639593908629
G1 X-2.063451776649746 Y86.90609137055837
G3 X-2.16497461928934 Y86.70304568527919 I2.626903553299492 J-1.4492385786802031
G1 X-2.228426395939086 Y86.56091370558374
G3 X-2.312182741116751 Y86.36548223350253 I2.7284263959390866 J-1.248730964467005
G1 X-2.365482233502538 Y86.21827411167513
G3 X-2.449238578680203 Y85.96446700507614 I2.8096446700507616 J-1.050761421319797
G1 X-2.489847715736041 Y85.81218274111676
G3 X-2.5406091370558377 Y85.60659898477157 I2.8908629441624365 J-0.799492385786802
G1 X-2.5710659898477157 Y85.4517766497462
G3 X-2.6091370558375635 Y85.20304568527919 I2.9416243654822334 J-0.5913705583756345
G1 X-2.626903553299492 Y85.0482233502538
G3 X-2.6446700507614214 Y84.81979695431471 I2.9796954314720816 J-0.3426395939086294
G1 X-2.6522842639593907 Y84.66243654822335
G3 X-2.654822335025381 Y84.5482233502538 I2.9974619289340105 J-0.11421319796954314
G1 X-2.654822335025381 Y82.00253807106598
G1 X-2.654822335025381 Y27.002538071065988
G1 X-2.654822335025381 Y22.002538071065988
G1 X-2.654822335025381 Y7.00253807106599
G1 X-2.654822335025381 Y2.3477157360406093
G1 X-2.654822335025381 Y2.345177664974619
G3 X-2.6522842639593907 Y2.213197969543147 I3 J0
G1 X-2.6446700507614214 Y2.0558375634517767
G3 X-2.6421319796954315 Y2.00253807106599 I2.9974619289340105 J0.13451776649746194
G3 X-2.626903553299492 Y1.8477157360406091 I2.99492385786802 J0.18781725888324874
G1 X-2.6091370558375635 Y1.6903553299492384
G3 X-2.5710659898477157 Y1.4416243654822336 I2.9796954314720816 J0.3426395939086294
G1 X-2.5406091370558377 Y1.2893401015228425
G3 X-2.489847715736041 Y1.0812182741116751 I2.9416243654822334 J0.5913705583756345
G1 X-2.449238578680203 Y0.9289340101522843
G3 X-2.365482233502538 Y0.6776649746192893 I2.8908629441624365 J0.799492385786802
G1 X-2.312182741116751 Y0.5304568527918782
G3 X-2.228426395939086 Y0.33248730964467005 I2.8096446700507616 J1.050761421319797
G1 X-2.16497461928934 Y0.1903553299492386
G3 X-2.050761421319797 Y-0.030456852791878174 I2.7284263959390866 J1.248730964467005
G1 X-1.9746192893401016 Y-0.16751269035532995
G3 X-1.8578680203045685 Y-0.35786802030456855 I2.6142131979695433 J1.469543147208122
G1 X-1.7715736040609138 Y-0.4873096446700508
G3 X-1.619289340101523 Y-0.6979695431472082 I2.5 J1.6598984771573604
G1 X-1.5203045685279188 Y-0.8197969543147209
G3 X-1.3883248730964468 Y-0.9746192893401016 I2.345177664974619 J1.8705583756345179
G1 X-1.2842639593908631 Y-1.0913705583756346
G3 X-1.0913705583756346 Y-1.281725888324873 I2.215736040609137 J2.0228426395939088
G1 X-0.9771573604060914 Y-1.3883248730964468
G3 X-0.8223350253807106 Y-1.5203045685279188 I2.0228426395939088 J2.215736040609137
G1 X-0.6979695431472082 Y-1.6167512690355328
G3 X-0.48984771573604063 Y-1.7715736040609138 I1.8705583756345179 J2.345177664974619
G1 X-0.35786802030456855 Y-1.8578680203045685
G3 X-0.16751269035532995 Y-1.9746192893401016 I1.6598984771573604 J2.5
G1 X-0.030456852791878174 Y-2.050761421319797
G3 X0.1903553299492386 Y-2.1624365482233503 I1.469543147208122 J2.6142131979695433
G1 X0.33248730964467005 Y-2.228426395939086
G3 X0.5279187817258884 Y-2.3096446700507616 I1.248730964467005 J2.7284263959390866
G1 X0.6751269035532994 Y-2.365482233502538
G3 X0.9289340101522843 Y-2.446700507614213 I1.050761421319797 J2.8096446700507616
G1 X1.0812182741116751 Y-2.489847715736041
G3 X1.2868020304568528 Y-2.5380710659898478 I0.799492385786802 J2.8908629441624365
G1 X1.4416243654822336 Y-2.5685279187817263
G3 X1.6903553299492384 Y-2.6091370558375635 I0.5913705583756345 J2.9416243654822334
G1 X1.8451776649746194 Y-2.626903553299492
G3 X2.0558375634517767 Y-2.6446700507614214 I0.3426395939086294 J2.9796954314720816
G1 X2.213197969543147 Y-2.6497461928934007
G3 X2.3477157360406093 Y-2.654822335025381 I0.13451776649746194 J2.9974619289340105
G1 X69.83756345177665 Y-2.6522842639593907
G1 X74.83756345177665 Y-2.6522842639593907
G1 X119.83756345177666 Y-2.6522842639593907
G1 X124.83756345177666 Y-2.6522842639593907
G1 X149.83756345177665 Y-2.6522842639593907
G1 X154.83756345177665 Y-2.6522842639593907
G1 X229.83756345177665 Y-2.6522842639593907
G1 X234.83756345177665 Y-2.6522842639593907
G1 X236.9467005076142 Y-2.6522842639593907
G3 X237.06345177664974 Y-2.6497461928934007 I0 J3
G1 X237.21827411167513 Y-2.6446700507614214
G3 X237.4467005076142 Y-2.626903553299492 I-0.11421319796954314 J2.9974619289340105
G1 X237.60406091370558 Y-2.6091370558375635
G3 X237.8502538071066 Y-2.5685279187817263 I-0.3426395939086294 J2.9796954314720816
G1 X238.005076142132 Y-2.5380710659898478
G3 X238.21319796954313 Y-2.489847715736041 I-0.5913705583756345 J2.9416243654822334
G1 X238.36548223350252 Y-2.446700507614213
G3 X238.61675126903552 Y-2.365482233502538 I-0.799492385786802 J2.8908629441624365
G1 X238.76395939086294 Y-2.3096446700507616
G3 X238.96192893401013 Y-2.228426395939086 I-1.050761421319797 J2.8096446700507616
G1 X239.10406091370558 Y-2.1624365482233503
G3 X239.3248730964467 Y-2.050761421319797 I-1.248730964467005 J2.7284263959390866
G1 X239.46192893401016 Y-1.9746192893401016
G3 X239.6522842639594 Y-1.8578680203045685 I-1.469543147208122 J2.6142131979695433
G1 X239.78172588832484 Y-1.7715736040609138
G3 X239.99238578680203 Y-1.6167512690355328 I-1.6598984771573604 J2.5
G1 X240.11421319796955 Y-1.5203045685279188
G3 X240.26903553299493 Y-1.3883248730964468 I-1.8705583756345179 J2.345177664974619
G1 X240.38578680203045 Y-1.281725888324873
G3 X240.57614213197968 Y-1.0913705583756346 I-2.0228426395939088 J2.215736040609137
G1 X240.68274111675126 Y-0.9746192893401016
G3 X240.8147208121827 Y-0.8197969543147209 I-2.215736040609137 J2.0228426395939088
G1 X240.91116751269033 Y-0.6979695431472082
G3 X241.06345177664974 Y-0.4873096446700508 I-2.345177664974619 J1.8705583756345179
G1 X241.15228426395936 Y-0.35786802030456855
G3 X241.26649746192894 Y-0.16751269035532995 I-2.5 J1.6598984771573604
G1 X241.34517766497464 Y-0.030456852791878174
G3 X241.45685279187816 Y0.1903553299492386 I-2.6142131979695433 J1.469543147208122
G1 X241.5228426395939 Y0.33248730964467005
G3 X241.60406091370558 Y0.5304568527918782 I-2.7284263959390866 J1.248730964467005
G1 X241.65989847715736 Y0.6776649746192893
G3 X241.74111675126903 Y0.9289340101522843 I-2.8096446700507616 J1.050761421319797
G1 X241.78426395939087 Y1.0812182741116751
G3 X241.83248730964468 Y1.2893401015228425 I-2.8908629441624365 J0.799492385786802
G1 X241.86294416243655 Y1.4416243654822336
G3 X241.9035532994924 Y1.6903553299492384 I-2.9416243654822334 J0.5913705583756345
G1 X241.92131979695432 Y1.8477157360406091
G3 X241.93654822335023 Y2.0558375634517767 I-2.9796954314720816 J0.3426395939086294
G1 X241.9441624365482 Y2.213197969543147
G3 X241.9467005076142 Y2.345177664974619 I-2.9974619289340105 J0.13451776649746194
G1 X241.9467005076142 Y84.5482233502538
G3 X241.9441624365482 Y84.68020304568527 I-3 J0
G1 X241.93654822335023 Y84.83756345177666
G3 X241.92131979695432 Y85.0482233502538 I-2.9974619289340105 J-0.13451776649746194
G1 X241.9035532994924 Y85.20304568527919
G3 X241.86294416243655 Y85.4517766497462 I-2.9796954314720816 J-0.3426395939086294
G1 X241.83248730964468 Y85.60659898477157
G3 X241.78426395939087 Y85.81218274111676 I-2.9416243654822334 J-0.5913705583756345
G1 X241.74111675126903 Y85.96446700507614
G3 X241.65989847715736 Y86.21827411167513 I-2.8908629441624365 J-0.799492385786802
G1 X241.60406091370558 Y86.36548223350253
G3 X241.5228426395939 Y86.56091370558374 I-2.8096446700507616 J-1.050761421319797
G1 X241.45685279187816 Y86.70304568527919
G3 X241.34517766497464 Y86.92639593908629 I-2.7284263959390866 J-1.248730964467005
G1 X241.26649746192894 Y87.06345177664974
G3 X241.15228426395936 Y87.251269035533 I-2.6142131979695433 J-1.469543147208122
G1 X241.06345177664974 Y87.38324873096447
G3 X240.91116751269033 Y87.59390862944161 I-2.5 J-1.6598984771573604
G1 X240.8147208121827 Y87.71573604060913
G3 X240.68274111675126 Y87.87055837563452 I-2.345177664974619 J-1.8705583756345179
G1 X240.57614213197968 Y87.98730964467005
G3 X240.38578680203045 Y88.17766497461929 I-2.215736040609137 J-2.0228426395939088
G1 X240.26903553299493 Y88.28426395939087
G3 X240.11421319796955 Y88.41370558375635 I-2.0228426395939088 J-2.215736040609137
G1 X239.99238578680203 Y88.51269035532995
G3 X239.78172588832484 Y88.66497461928932 I-1.8705583756345179 J-2.345177664974619
G1 X239.6522842639594 Y88.751269035533
G3 X239.46192893401016 Y88.86802030456852 I-1.6598984771573604 J-2.5
G1 X239.3248730964467 Y88.94670050761421
G3 X239.10406091370558 Y89.05837563451776 I-1.469543147208122 J-2.6142131979695433
G1 X238.96192893401013 Y89.12436548223351
G3 X238.76395939086294 Y89.20558375634516 I-1.248730964467005 J-2.7284263959390866
G1 X238.61675126903552 Y89.26142131979695
G3 X238.36548223350252 Y89.34263959390863 I-1.050761421319797 J-2.8096446700507616
G1 X238.21319796954313 Y89.38324873096447
G3 X238.005076142132 Y89.43401015228426 I-0.799492385786802 J-2.8908629441624365
G1 X237.8502538071066 Y89.46446700507614
G3 X237.60406091370558 Y89.50253807106598 I-0.5913705583756345 J-2.9416243654822334
G1 X237.4467005076142 Y89.5228426395939
G3 X237.21827411167513 Y89.53807106598985 I-0.3426395939086294 J-2.9796954314720816
G1 X237.06345177664974 Y89.54568527918782
G3 X236.9467005076142 Y89.5482233502538 I-0.11421319796954314 J-2.9974619289340105
G1 Z-6 F500
G1 X231.9467005076142 Y89.5482233502538 F550
G1 X231.9467005076142 Y89.5482233502538
G1 X156.94670050761422 Y89.5482233502538
G1 X151.94670050761422 Y89.5482233502538
G1 X86.94670050761422 Y89.5482233502538
G1 X81.94670050761422 Y89.5482233502538
G1 X76.94670050761421 Y89.5482233502538
G1 X71.94670050761421 Y89.5482233502538
G1 X2.3477157360406093 Y89.5482233502538
G3 X2.213197969543147 Y89.54568527918782 I0 J-3
G1 X2.0558375634517767 Y89.53807106598985
G3 X1.8451776649746194 Y89.5228426395939 I0.13451776649746194 J-2.9974619289340105
G1 X1.6903553299492384 Y89.50253807106598
G3 X1.4416243654822336 Y89.46446700507614 I0.3426395939086294 J-2.9796954314720816
G1 X1.2868020304568528 Y89.43401015228426
G3 X1.0812182741116751 Y89.38324873096447 I0.5913705583756345 J-2.9416243654822334
G1 X0.9289340101522843 Y89.34263959390863
G3 X0.6751269035532994 Y89.26142131979695 I0.799492385786802 J-2.8908629441624365
G1 X0.5279187817258884 Y89.20558375634516
G3 X0.33248730964467005 Y89.12436548223351 I1.050761421319797 J-2.8096446700507616
G1 X0.1903553299492386 Y89.05837563451776
G3 X-0.030456852791878174 Y88.94670050761421 I1.248730964467005 J-2.7284263959390866
G1 X-0.16751269035532995 Y88.86802030456852
G3 X-0.35786802030456855 Y88.751269035533 I1.469543147208122 J-2.6142131979695433
G1 X-0.48984771573604063 Y88.66497461928932
G3 X-0.6979695431472082 Y88.51269035532995 I1.6598984771573604 J-2.5
G1 X-0.8223350253807106 Y88.41370558375635
G3 X-0.9771573604060914 Y88.28426395939087 I1.8705583756345179 J-2.345177664974619
G1 X-1.0913705583756346 Y88.17766497461929
G3 X-1.2842639593908631 Y87.98730964467005 I2.0228426395939088 J-2.215736040609137
G1 X-1.3883248730964468 Y87.87055837563452
G3 X-1.5203045685279188 Y87.71573604060913 I2.215736040609137 J-2.0228426395939088
G1 X-1.619289340101523 Y87.59390862944161
G3 X-1.7715736040609138 Y87.38324873096447 I2.345177664974619 J-1.8705583756345179
G1 X-1.8578680203045685 Y87.251269035533
G3 X-1.9746192893401016 Y87.06345177664974 I2.5 J-1.6598984771573604
G1 X-2.050761421319797 Y86.92639593908629
G1 X-2.063451776649746 Y86.90609137055837
G3 X-2.16497461928934 Y86.70304568527919 I2.626903553299492 J-1.4492385786802031
G1 X-2.228426395939086 Y86.56091370558374
G3 X-2.312182741116751 Y86.36548223350253 I2.7284263959390866 J-1.248730964467005
G1 X-2.365482233502538 Y86.21827411167513
G3 X-2.449238578680203 Y85.96446700507614 I2.8096446700507616 J-1.050761421319797
G1 X-2.489847715736041 Y85.81218274111676
G3 X-2.5406091370558377 Y85.60659898477157 I2.8908629441624365 J-0.799492385786802
G1 X-2.5710659898477157 Y85.4517766497462
G3 X-2.6091370558375635 Y85.20304568527919 I2.9416243654822334 J-0.5913705583756345
G1 X-2.626903553299492 Y85.0482233502538
G3 X-2.6446700507614214 Y84.81979695431471 I2.9796954314720816 J-0.3426395939086294
G1 X-2.6522842639593907 Y84.66243654822335
G3 X-2.654822335025381 Y84.5482233502538 I2.9974619289340105 J-0.11421319796954314
G1 X-2.654822335025381 Y82.00253807106598
G1 X-2.654822335025381 Y27.002538071065988
G1 X-2.654822335025381 Y22.002538071065988
G1 X-2.654822335025381 Y7.00253807106599
G1 X-2.654822335025381 Y2.3477157360406093
G1 X-2.654822335025381 Y2.345177664974619
G3 X-2.6522842639593907 Y2.213197969543147 I3 J0
G1 X-2.6446700507614214 Y2.0558375634517767
G3 X-2.6421319796954315 Y2.00253807106599 I2.9974619289340105 J0.13451776649746194
G3 X-2.626903553299492 Y1.8477157360406091 I2.99492385786802 J0.18781725888324874
G1 X-2.6091370558375635 Y1.6903553299492384
G3 X-2.5710659898477157 Y1.4416243654822336 I2.9796954314720816 J0.3426395939086294
G1 X-2.5406091370558377 Y1.2893401015228425
G3 X-2.489847715736041 Y1.0812182741116751 I2.9416243654822334 J0.5913705583756345
G1 X-2.449238578680203 Y0.9289340101522843
G3 X-2.365482233502538 Y0.6776649746192893 I2.8908629441624365 J0.799492385786802
G1 X-2.312182741116751 Y0.5304568527918782
G3 X-2.228426395939086 Y0.33248730964467005 I2.8096446700507616 J1.050761421319797
G1 X-2.16497461928934 Y0.1903553299492386
G3 X-2.050761421319797 Y-0.030456852791878174 I2.7284263959390866 J1.248730964467005
G1 X-1.9746192893401016 Y-0.16751269035532995
G3 X-1.8578680203045685 Y-0.35786802030456855 I2.6142131979695433 J1.469543147208122
G1 X-1.7715736040609138 Y-0.4873096446700508
G3 X-1.619289340101523 Y-0.6979695431472082 I2.5 J1.6598984771573604
G1 X-1.5203045685279188 Y-0.8197969543147209
G3 X-1.3883248730964468 Y-0.9746192893401016 I2.345177664974619 J1.8705583756345179
G1 X-1.2842639593908631 Y-1.0913705583756346
G3 X-1.0913705583756346 Y-1.281725888324873 I2.215736040609137 J2.0228426395939088
G1 X-0.9771573604060914 Y-1.3883248730964468
G3 X-0.8223350253807106 Y-1.5203045685279188 I2.0228426395939088 J2.215736040609137
G1 X-0.6979695431472082 Y-1.6167512690355328
G3 X-0.48984771573604063 Y-1.7715736040609138 I1.8705583756345179 J2.345177664974619
G1 X-0.35786802030456855 Y-1.8578680203045685
G3 X-0.16751269035532995 Y-1.9746192893401016 I1.6598984771573604 J2.5
G1 X-0.030456852791878174 Y-2.050761421319797
G3 X0.1903553299492386 Y-2.1624365482233503 I1.469543147208122 J2.6142131979695433
G1 X0.33248730964467005 Y-2.228426395939086
G3 X0.5279187817258884 Y-2.3096446700507616 I1.248730964467005 J2.7284263959390866
G1 X0.6751269035532994 Y-2.365482233502538
G3 X0.9289340101522843 Y-2.446700507614213 I1.050761421319797 J2.8096446700507616
G1 X1.0812182741116751 Y-2.489847715736041
G3 X1.2868020304568528 Y-2.5380710659898478 I0.799492385786802 J2.8908629441624365
G1 X1.4416243654822336 Y-2.5685279187817263
G3 X1.6903553299492384 Y-2.6091370558375635 I0.5913705583756345 J2.9416243654822334
G1 X1.8451776649746194 Y-2.626903553299492
G3 X2.0558375634517767 Y-2.6446700507614214 I0.3426395939086294 J2.9796954314720816
G1 X2.213197969543147 Y-2.6497461928934007
G3 X2.3477157360406093 Y-2.654822335025381 I0.13451776649746194 J2.9974619289340105
G1 X69.83756345177665 Y-2.6522842639593907
G1 X74.83756345177665 Y-2.6522842639593907
G1 X119.83756345177666 Y-2.6522842639593907
G1 X124.83756345177666 Y-2.6522842639593907
G1 X149.83756345177665 Y-2.6522842639593907
G1 X154.83756345177665 Y-2.6522842639593907
G1 X229.83756345177665 Y-2.6522842639593907
G1 X234.83756345177665 Y-2.6522842639593907
G1 X236.9467005076142 Y-2.6522842639593907
G3 X237.06345177664974 Y-2.6497461928934007 I0 J3
G1 X237.21827411167513 Y-2.6446700507614214
G3 X237.4467005076142 Y-2.626903553299492 I-0.11421319796954314 J2.9974619289340105
G1 X237.60406091370558 Y-2.6091370558375635
G3 X237.8502538071066 Y-2.5685279187817263 I-0.3426395939086294 J2.9796954314720816
G1 X238.005076142132 Y-2.5380710659898478
G3 X238.21319796954313 Y-2.489847715736041 I-0.5913705583756345 J2.9416243654822334
G1 X238.36548223350252 Y-2.446700507614213
G3 X238.61675126903552 Y-2.365482233502538 I-0.799492385786802 J2.8908629441624365
G1 X238.76395939086294 Y-2.3096446700507616
G3 X238.96192893401013 Y-2.228426395939086 I-1.050761421319797 J2.8096446700507616
G1 X239.10406091370558 Y-2.1624365482233503
G3 X239.3248730964467 Y-2.050761421319797 I-1.248730964467005 J2.7284263959390866
G1 X239.46192893401016 Y-1.9746192893401016
G3 X239.6522842639594 Y-1.8578680203045685 I-1.469543147208122 J2.6142131979695433
G1 X239.78172588832484 Y-1.7715736040609138
G3 X239.99238578680203 Y-1.6167512690355328 I-1.6598984771573604 J2.5
G1 X240.11421319796955 Y-1.5203045685279188
G3 X240.26903553299493 Y-1.3883248730964468 I-1.8705583756345179 J2.345177664974619
G1 X240.38578680203045 Y-1.281725888324873
G3 X240.57614213197968 Y-1.0913705583756346 I-2.0228426395939088 J2.215736040609137
G1 X240.68274111675126 Y-0.9746192893401016
G3 X240.8147208121827 Y-0.8197969543147209 I-2.215736040609137 J2.0228426395939088
G1 X240.91116751269033 Y-0.6979695431472082
G3 X241.06345177664974 Y-0.4873096446700508 I-2.345177664974619 J1.8705583756345179
G1 X241.15228426395936 Y-0.35786802030456855
G3 X241.26649746192894 Y-0.16751269035532995 I-2.5 J1.6598984771573604
G1 X241.34517766497464 Y-0.030456852791878174
G3 X241.45685279187816 Y0.1903553299492386 I-2.6142131979695433 J1.469543147208122
G1 X241.5228426395939 Y0.33248730964467005
G3 X241.60406091370558 Y0.5304568527918782 I-2.7284263959390866 J1.248730964467005
G1 X241.65989847715736 Y0.6776649746192893
G3 X241.74111675126903 Y0.9289340101522843 I-2.8096446700507616 J1.050761421319797
G1 X241.78426395939087 Y1.0812182741116751
G3 X241.83248730964468 Y1.2893401015228425 I-2.8908629441624365 J0.799492385786802
G1 X241.86294416243655 Y1.4416243654822336
G3 X241.9035532994924 Y1.6903553299492384 I-2.9416243654822334 J0.5913705583756345
G1 X241.92131979695432 Y1.8477157360406091
G3 X241.93654822335023 Y2.0558375634517767 I-2.9796954314720816 J0.3426395939086294
G1 X241.9441624365482 Y2.213197969543147
G3 X241.9467005076142 Y2.345177664974619 I-2.9974619289340105 J0.13451776649746194
G1 X241.9467005076142 Y84.5482233502538
G3 X241.9441624365482 Y84.68020304568527 I-3 J0
G1 X241.93654822335023 Y84.83756345177666
G3 X241.92131979695432 Y85.0482233502538 I-2.9974619289340105 J-0.13451776649746194
G1 X241.9035532994924 Y85.20304568527919
G3 X241.86294416243655 Y85.4517766497462 I-2.9796954314720816 J-0.3426395939086294
G1 X241.83248730964468 Y85.60659898477157
G3 X241.78426395939087 Y85.81218274111676 I-2.9416243654822334 J-0.5913705583756345
G1 X241.74111675126903 Y85.96446700507614
G3 X241.65989847715736 Y86.21827411167513 I-2.8908629441624365 J-0.799492385786802
G1 X241.60406091370558 Y86.36548223350253
G3 X241.5228426395939 Y86.56091370558374 I-2.8096446700507616 J-1.050761421319797
G1 X241.45685279187816 Y86.70304568527919
G3 X241.34517766497464 Y86.92639593908629 I-2.7284263959390866 J-1.248730964467005
G1 X241.26649746192894 Y87.06345177664974
G3 X241.15228426395936 Y87.251269035533 I-2.6142131979695433 J-1.469543147208122
G1 X241.06345177664974 Y87.38324873096447
G3 X240.91116751269033 Y87.59390862944161 I-2.5 J-1.6598984771573604
G1 X240.8147208121827 Y87.71573604060913
G3 X240.68274111675126 Y87.87055837563452 I-2.345177664974619 J-1.8705583756345179
G1 X240.57614213197968 Y87.98730964467005
G3 X240.38578680203045 Y88.17766497461929 I-2.215736040609137 J-2.0228426395939088
G1 X240.26903553299493 Y88.28426395939087
G3 X240.11421319796955 Y88.41370558375635 I-2.0228426395939088 J-2.215736040609137
G1 X239.99238578680203 Y88.51269035532995
G3 X239.78172588832484 Y88.66497461928932 I-1.8705583756345179 J-2.345177664974619
G1 X239.6522842639594 Y88.751269035533
G3 X239.46192893401016 Y88.86802030456852 I-1.6598984771573604 J-2.5
G1 X239.3248730964467 Y88.94670050761421
G3 X239.10406091370558 Y89.05837563451776 I-1.469543147208122 J-2.6142131979695433
G1 X238.96192893401013 Y89.12436548223351
G3 X238.76395939086294 Y89.20558375634516 I-1.248730964467005 J-2.7284263959390866
G1 X238.61675126903552 Y89.26142131979695
G3 X238.36548223350252 Y89.34263959390863 I-1.050761421319797 J-2.8096446700507616
G1 X238.21319796954313 Y89.38324873096447
G3 X238.005076142132 Y89.43401015228426 I-0.799492385786802 J-2.8908629441624365
G1 X237.8502538071066 Y89.46446700507614
G3 X237.60406091370558 Y89.50253807106598 I-0.5913705583756345 J-2.9416243654822334
G1 X237.4467005076142 Y89.5228426395939
G3 X237.21827411167513 Y89.53807106598985 I-0.3426395939086294 J-2.9796954314720816
G1 X237.06345177664974 Y89.54568527918782
G3 X236.9467005076142 Y89.5482233502538 I-0.11421319796954314 J-2.9974619289340105
G1 Z-7.5 F500
G1 X231.9467005076142 Y89.5482233502538 F550
G1 X231.9467005076142 Y89.5482233502538
G1 X156.94670050761422 Y89.5482233502538
G1 X151.94670050761422 Y89.5482233502538
G1 X86.94670050761422 Y89.5482233502538
G1 X81.94670050761422 Y89.5482233502538
G1 X76.94670050761421 Y89.5482233502538
G1 X71.94670050761421 Y89.5482233502538
G1 X2.3477157360406093 Y89.5482233502538
G3 X2.213197969543147 Y89.54568527918782 I0 J-3
G1 X2.0558375634517767 Y89.53807106598985
G3 X1.8451776649746194 Y89.5228426395939 I0.13451776649746194 J-2.9974619289340105
G1 X1.6903553299492384 Y89.50253807106598
G3 X1.4416243654822336 Y89.46446700507614 I0.3426395939086294 J-2.9796954314720816
G1 X1.2868020304568528 Y89.43401015228426
G3 X1.0812182741116751 Y89.38324873096447 I0.5913705583756345 J-2.9416243654822334
G1 X0.9289340101522843 Y89.34263959390863
G3 X0.6751269035532994 Y89.26142131979695 I0.799492385786802 J-2.8908629441624365
G1 X0.5279187817258884 Y89.20558375634516
G3 X0.33248730964467005 Y89.12436548223351 I1.050761421319797 J-2.8096446700507616
G1 X0.1903553299492386 Y89.05837563451776
G3 X-0.030456852791878174 Y88.94670050761421 I1.248730964467005 J-2.7284263959390866
G1 X-0.16751269035532995 Y88.86802030456852
G3 X-0.35786802030456855 Y88.751269035533 I1.469543147208122 J-2.6142131979695433
G1 X-0.48984771573604063 Y88.66497461928932
G3 X-0.6979695431472082 Y88.51269035532995 I1.6598984771573604 J-2.5
G1 X-0.8223350253807106 Y88.41370558375635
G3 X-0.9771573604060914 Y88.28426395939087 I1.8705583756345179 J-2.345177664974619
G1 X-1.0913705583756346 Y88.17766497461929
G3 X-1.2842639593908631 Y87.98730964467005 I2.0228426395939088 J-2.215736040609137
G1 X-1.3883248730964468 Y87.87055837563452
G3 X-1.5203045685279188 Y87.71573604060913 I2.215736040609137 J-2.0228426395939088
G1 X-1.619289340101523 Y87.59390862944161
G3 X-1.7715736040609138 Y87.38324873096447 I2.345177664974619 J-1.8705583756345179
G1 X-1.8578680203045685 Y87.251269035533
G3 X-1.9746192893401016 Y87.06345177664974 I2.5 J-1.6598984771573604
G1 X-2.050761421319797 Y86.92639593908629
G1 X-2.063451776649746 Y86.90609137055837
G3 X-2.16497461928934 Y86.70304568527919 I2.626903553299492 J-1.4492385786802031
G1 X-2.228426395939086 Y86.56091370558374
G3 X-2.312182741116751 Y86.36548223350253 I2.7284263959390866 J-1.248730964467005
G1 X-2.365482233502538 Y86.21827411167513
G3 X-2.449238578680203 Y85.96446700507614 I2.8096446700507616 J-1.050761421319797
G1 X-2.489847715736041 Y85.81218274111676
G3 X-2.5406091370558377 Y85.60659898477157 I2.8908629441624365 J-0.799492385786802
G1 X-2.5710659898477157 Y85.4517766497462
G3 X-2.6091370558375635 Y85.20304568527919 I2.9416243654822334 J-0.5913705583756345
G1 X-2.626903553299492 Y85.0482233502538
G3 X-2.6446700507614214 Y84.81979695431471 I2.9796954314720816 J-0.3426395939086294
G1 X-2.6522842639593907 Y84.66243654822335
G3 X-2.654822335025381 Y84.5482233502538 I2.9974619289340105 J-0.11421319796954314
G1 X-2.654822335025381 Y82.00253807106598
G1 X-2.654822335025381 Y27.002538071065988
G1 X-2.654822335025381 Y22.002538071065988
G1 X-2.654822335025381 Y7.00253807106599
G1 X-2.654822335025381 Y2.3477157360406093
G1 X-2.654822335025381 Y2.345177664974619
G3 X-2.6522842639593907 Y2.213197969543147 I3 J0
G1 X-2.6446700507614214 Y2.0558375634517767
G3 X-2.6421319796954315 Y2.00253807106599 I2.9974619289340105 J0.13451776649746194
G3 X-2.626903553299492 Y1.8477157360406091 I2.99492385786802 J0.18781725888324874
G1 X-2.6091370558375635 Y1.6903553299492384
G3 X-2.5710659898477157 Y1.4416243654822336 I2.9796954314720816 J0.3426395939086294
G1 X-2.5406091370558377 Y1.2893401015228425
G3 X-2.489847715736041 Y1.0812182741116751 I2.9416243654822334 J0.5913705583756345
G1 X-2.449238578680203 Y0.9289340101522843
G3 X-2.365482233502538 Y0.6776649746192893 I2.8908629441624365 J0.799492385786802
G1 X-2.312182741116751 Y0.5304568527918782
G3 X-2.228426395939086 Y0.33248730964467005 I2.8096446700507616 J1.050761421319797
G1 X-2.16497461928934 Y0.1903553299492386
G3 X-2.050761421319797 Y-0.030456852791878174 I2.7284263959390866 J1.248730964467005
G1 X-1.9746192893401016 Y-0.16751269035532995
G3 X-1.8578680203045685 Y-0.35786802030456855 I2.6142131979695433 J1.469543147208122
G1 X-1.7715736040609138 Y-0.4873096446700508
G3 X-1.619289340101523 Y-0.6979695431472082 I2.5 J1.6598984771573604
G1 X-1.5203045685279188 Y-0.8197969543147209
G3 X-1.3883248730964468 Y-0.9746192893401016 I2.345177664974619 J1.8705583756345179
G1 X-1.2842639593908631 Y-1.0913705583756346
G3 X-1.0913705583756346 Y-1.281725888324873 I2.215736040609137 J2.0228426395939088
G1 X-0.9771573604060914 Y-1.3883248730964468
G3 X-0.8223350253807106 Y-1.5203045685279188 I2.0228426395939088 J2.215736040609137
G1 X-0.6979695431472082 Y-1.6167512690355328
G3 X-0.48984771573604063 Y-1.7715736040609138 I1.8705583756345179 J2.345177664974619
G1 X-0.35786802030456855 Y-1.8578680203045685
G3 X-0.16751269035532995 Y-1.9746192893401016 I1.6598984771573604 J2.5
G1 X-0.030456852791878174 Y-2.050761421319797
G3 X0.1903553299492386 Y-2.1624365482233503 I1.469543147208122 J2.6142131979695433
G1 X0.33248730964467005 Y-2.228426395939086
G3 X0.5279187817258884 Y-2.3096446700507616 I1.248730964467005 J2.7284263959390866
G1 X0.6751269035532994 Y-2.365482233502538
G3 X0.9289340101522843 Y-2.446700507614213 I1.050761421319797 J2.8096446700507616
G1 X1.0812182741116751 Y-2.489847715736041
G3 X1.2868020304568528 Y-2.5380710659898478 I0.799492385786802 J2.8908629441624365
G1 X1.4416243654822336 Y-2.5685279187817263
G3 X1.6903553299492384 Y-2.6091370558375635 I0.5913705583756345 J2.9416243654822334
G1 X1.8451776649746194 Y-2.626903553299492
G3 X2.0558375634517767 Y-2.6446700507614214 I0.3426395939086294 J2.9796954314720816
G1 X2.213197969543147 Y-2.6497461928934007
G3 X2.3477157360406093 Y-2.654822335025381 I0.13451776649746194 J2.9974619289340105
G1 X69.83756345177665 Y-2.6522842639593907
G1 X74.83756345177665 Y-2.6522842639593907
G1 X119.83756345177666 Y-2.6522842639593907
G1 X124.83756345177666 Y-2.6522842639593907
G1 X149.83756345177665 Y-2.6522842639593907
G1 X154.83756345177665 Y-2.6522842639593907
G1 X229.83756345177665 Y-2.6522842639593907
G1 X234.83756345177665 Y-2.6522842639593907
G1 X236.9467005076142 Y-2.6522842639593907
G3 X237.06345177664974 Y-2.6497461928934007 I0 J3
G1 X237.21827411167513 Y-2.6446700507614214
G3 X237.4467005076142 Y-2.626903553299492 I-0.11421319796954314 J2.9974619289340105
G1 X237.60406091370558 Y-2.6091370558375635
G3 X237.8502538071066 Y-2.5685279187817263 I-0.3426395939086294 J2.9796954314720816
G1 X238.005076142132 Y-2.5380710659898478
G3 X238.21319796954313 Y-2.489847715736041 I-0.5913705583756345 J2.9416243654822334
G1 X238.36548223350252 Y-2.446700507614213
G3 X238.61675126903552 Y-2.365482233502538 I-0.799492385786802 J2.8908629441624365
G1 X238.76395939086294 Y-2.3096446700507616
G3 X238.96192893401013 Y-2.228426395939086 I-1.050761421319797 J2.8096446700507616
G1 X239.10406091370558 Y-2.1624365482233503
G3 X239.3248730964467 Y-2.050761421319797 I-1.248730964467005 J2.7284263959390866
G1 X239.46192893401016 Y-1.9746192893401016
G3 X239.6522842639594 Y-1.8578680203045685 I-1.469543147208122 J2.6142131979695433
G1 X239.78172588832484 Y-1.7715736040609138
G3 X239.99238578680203 Y-1.6167512690355328 I-1.6598984771573604 J2.5
G1 X240.11421319796955 Y-1.5203045685279188
G3 X240.26903553299493 Y-1.3883248730964468 I-1.8705583756345179 J2.345177664974619
G1 X240.38578680203045 Y-1.281725888324873
G3 X240.57614213197968 Y-1.0913705583756346 I-2.0228426395939088 J2.215736040609137
G1 X240.68274111675126 Y-0.9746192893401016
G3 X240.8147208121827 Y-0.8197969543147209 I-2.215736040609137 J2.0228426395939088
G1 X240.91116751269033 Y-0.6979695431472082
G3 X241.06345177664974 Y-0.4873096446700508 I-2.345177664974619 J1.8705583756345179
G1 X241.15228426395936 Y-0.35786802030456855
G3 X241.26649746192894 Y-0.16751269035532995 I-2.5 J1.6598984771573604
G1 X241.34517766497464 Y-0.030456852791878174
G3 X241.45685279187816 Y0.1903553299492386 I-2.6142131979695433 J1.469543147208122
G1 X241.5228426395939 Y0.33248730964467005
G3 X241.60406091370558 Y0.5304568527918782 I-2.7284263959390866 J1.248730964467005
G1 X241.65989847715736 Y0.6776649746192893
G3 X241.74111675126903 Y0.9289340101522843 I-2.8096446700507616 J1.050761421319797
G1 X241.78426395939087 Y1.0812182741116751
G3 X241.83248730964468 Y1.2893401015228425 I-2.8908629441624365 J0.799492385786802
G1 X241.86294416243655 Y1.4416243654822336
G3 X241.9035532994924 Y1.6903553299492384 I-2.9416243654822334 J0.5913705583756345
G1 X241.92131979695432 Y1.8477157360406091
G3 X241.93654822335023 Y2.0558375634517767 I-2.9796954314720816 J0.3426395939086294
G1 X241.9441624365482 Y2.213197969543147
G3 X241.9467005076142 Y2.345177664974619 I-2.9974619289340105 J0.13451776649746194
G1 X241.9467005076142 Y84.5482233502538
G3 X241.9441624365482 Y84.68020304568527 I-3 J0
G1 X241.93654822335023 Y84.83756345177666
G3 X241.92131979695432 Y85.0482233502538 I-2.9974619289340105 J-0.13451776649746194
G1 X241.9035532994924 Y85.20304568527919
G3 X241.86294416243655 Y85.4517766497462 I-2.9796954314720816 J-0.3426395939086294
G1 X241.83248730964468 Y85.60659898477157
G3 X241.78426395939087 Y85.81218274111676 I-2.9416243654822334 J-0.5913705583756345
G1 X241.74111675126903 Y85.96446700507614
G3 X241.65989847715736 Y86.21827411167513 I-2.8908629441624365 J-0.799492385786802
G1 X241.60406091370558 Y86.36548223350253
G3 X241.5228426395939 Y86.56091370558374 I-2.8096446700507616 J-1.050761421319797
G1 X241.45685279187816 Y86.70304568527919
G3 X241.34517766497464 Y86.92639593908629 I-2.7284263959390866 J-1.248730964467005
G1 X241.26649746192894 Y87.06345177664974
G3 X241.15228426395936 Y87.251269035533 I-2.6142131979695433 J-1.469543147208122
G1 X241.06345177664974 Y87.38324873096447
G3 X240.91116751269033 Y87.59390862944161 I-2.5 J-1.6598984771573604
G1 X240.8147208121827 Y87.71573604060913
G3 X240.68274111675126 Y87.87055837563452 I-2.345177664974619 J-1.8705583756345179
G1 X240.57614213197968 Y87.98730964467005
G3 X240.38578680203045 Y88.17766497461929 I-2.215736040609137 J-2.0228426395939088
G1 X240.26903553299493 Y88.28426395939087
G3 X240.11421319796955 Y88.41370558375635 I-2.0228426395939088 J-2.215736040609137
G1 X239.99238578680203 Y88.51269035532995
G3 X239.78172588832484 Y88.66497461928932 I-1.8705583756345179 J-2.345177664974619
G1 X239.6522842639594 Y88.751269035533
G3 X239.46192893401016 Y88.86802030456852 I-1.6598984771573604 J-2.5
G1 X239.3248730964467 Y88.94670050761421
G3 X239.10406091370558 Y89.05837563451776 I-1.469543147208122 J-2.6142131979695433
G1 X238.96192893401013 Y89.12436548223351
G3 X238.76395939086294 Y89.20558375634516 I-1.248730964467005 J-2.7284263959390866
G1 X238.61675126903552 Y89.26142131979695
G3 X238.36548223350252 Y89.34263959390863 I-1.050761421319797 J-2.8096446700507616
G1 X238.21319796954313 Y89.38324873096447
G3 X238.005076142132 Y89.43401015228426 I-0.799492385786802 J-2.8908629441624365
G1 X237.8502538071066 Y89.46446700507614
G3 X237.60406091370558 Y89.50253807106598 I-0.5913705583756345 J-2.9416243654822334
G1 X237.4467005076142 Y89.5228426395939
G3 X237.21827411167513 Y89.53807106598985 I-0.3426395939086294 J-2.9796954314720816
G1 X237.06345177664974 Y89.54568527918782
G3 X236.9467005076142 Y89.5482233502538 I-0.11421319796954314 J-2.9974619289340105
G1 Z-9 F500
G1 X231.9467005076142 Y89.5482233502538 F550
G1 X231.9467005076142 Y89.5482233502538
G1 X156.94670050761422 Y89.5482233502538
G1 X151.94670050761422 Y89.5482233502538
G1 X86.94670050761422 Y89.5482233502538
G1 X81.94670050761422 Y89.5482233502538
G1 X76.94670050761421 Y89.5482233502538
G1 X71.94670050761421 Y89.5482233502538
G1 X2.3477157360406093 Y89.5482233502538
G3 X2.213197969543147 Y89.54568527918782 I0 J-3
G1 X2.0558375634517767 Y89.53807106598985
G3 X1.8451776649746194 Y89.5228426395939 I0.13451776649746194 J-2.9974619289340105
G1 X1.6903553299492384 Y89.50253807106598
G3 X1.4416243654822336 Y89.46446700507614 I0.3426395939086294 J-2.9796954314720816
G1 X1.2868020304568528 Y89.43401015228426
G3 X1.0812182741116751 Y89.38324873096447 I0.5913705583756345 J-2.9416243654822334
G1 X0.9289340101522843 Y89.34263959390863
G3 X0.6751269035532994 Y89.26142131979695 I0.799492385786802 J-2.8908629441624365
G1 X0.5279187817258884 Y89.20558375634516
G3 X0.33248730964467005 Y89.12436548223351 I1.050761421319797 J-2.8096446700507616
G1 X0.1903553299492386 Y89.05837563451776
G3 X-0.030456852791878174 Y88.94670050761421 I1.248730964467005 J-2.7284263959390866
G1 X-0.16751269035532995 Y88.86802030456852
G3 X-0.35786802030456855 Y88.751269035533 I1.469543147208122 J-2.6142131979695433
G1 X-0.48984771573604063 Y88.66497461928932
G3 X-0.6979695431472082 Y88.51269035532995 I1.6598984771573604 J-2.5
G1 X-0.8223350253807106 Y88.41370558375635
G3 X-0.9771573604060914 Y88.28426395939087 I1.8705583756345179 J-2.345177664974619
G1 X-1.0913705583756346 Y88.17766497461929
G3 X-1.2842639593908631 Y87.98730964467005 I2.0228426395939088 J-2.215736040609137
G1 X-1.3883248730964468 Y87.87055837563452
G3 X-1.5203045685279188 Y87.71573604060913 I2.215736040609137 J-2.0228426395939088
G1 X-1.619289340101523 Y87.59390862944161
G3 X-1.7715736040609138 Y87.38324873096447 I2.345177664974619 J-1.8705583756345179
G1 X-1.8578680203045685 Y87.251269035533
G3 X-1.9746192893401016 Y87.06345177664974 I2.5 J-1.6598984771573604
G1 X-2.050761421319797 Y86.92639593908629
G1 X-2.063451776649746 Y86.90609137055837
G3 X-2.16497461928934 Y86.70304568527919 I2.626903553299492 J-1.4492385786802031
G1 X-2.228426395939086 Y86.56091370558374
G3 X-2.312182741116751 Y86.36548223350253 I2.7284263959390866 J-1.248730964467005
G1 X-2.365482233502538 Y86.21827411167513
G3 X-2.449238578680203 Y85.96446700507614 I2.8096446700507616 J-1.050761421319797
G1 X-2.489847715736041 Y85.81218274111676
G3 X-2.5406091370558377 Y85.60659898477157 I2.8908629441624365 J-0.799492385786802
G1 X-2.5710659898477157 Y85.4517766497462
G3 X-2.6091370558375635 Y85.20304568527919 I2.9416243654822334 J-0.5913705583756345
G1 X-2.626903553299492 Y85.0482233502538
G3 X-2.6446700507614214 Y84.81979695431471 I2.9796954314720816 J-0.3426395939086294
G1 X-2.6522842639593907 Y84.66243654822335
G3 X-2.654822335025381 Y84.5482233502538 I2.9974619289340105 J-0.11421319796954314
G1 X-2.654822335025381 Y82.00253807106598
G1 X-2.654822335025381 Y27.002538071065988
G1 X-2.654822335025381 Y22.002538071065988
G1 X-2.654822335025381 Y7.00253807106599
G1 X-2.654822335025381 Y2.3477157360406093
G1 X-2.654822335025381 Y2.345177664974619
G3 X-2.6522842639593907 Y2.213197969543147 I3 J0
G1 X-2.6446700507614214 Y2.0558375634517767
G3 X-2.6421319796954315 Y2.00253807106599 I2.9974619289340105 J0.13451776649746194
G3 X-2.626903553299492 Y1.8477157360406091 I2.99492385786802 J0.18781725888324874
G1 X-2.6091370558375635 Y1.6903553299492384
G3 X-2.5710659898477157 Y1.4416243654822336 I2.9796954314720816 J0.3426395939086294
G1 X-2.5406091370558377 Y1.2893401015228425
G3 X-2.489847715736041 Y1.0812182741116751 I2.9416243654822334 J0.5913705583756345
G1 X-2.449238578680203 Y0.9289340101522843
G3 X-2.365482233502538 Y0.6776649746192893 I2.8908629441624365 J0.799492385786802
G1 X-2.312182741116751 Y0.5304568527918782
G3 X-2.228426395939086 Y0.33248730964467005 I2.8096446700507616 J1.050761421319797
G1 X-2.16497461928934 Y0.1903553299492386
G3 X-2.050761421319797 Y-0.030456852791878174 I2.7284263959390866 J1.248730964467005
G1 X-1.9746192893401016 Y-0.16751269035532995
G3 X-1.8578680203045685 Y-0.35786802030456855 I2.6142131979695433 J1.469543147208122
G1 X-1.7715736040609138 Y-0.4873096446700508
G3 X-1.619289340101523 Y-0.6979695431472082 I2.5 J1.6598984771573604
G1 X-1.5203045685279188 Y-0.8197969543147209
G3 X-1.3883248730964468 Y-0.9746192893401016 I2.345177664974619 J1.8705583756345179
G1 X-1.2842639593908631 Y-1.0913705583756346
G3 X-1.0913705583756346 Y-1.281725888324873 I2.215736040609137 J2.0228426395939088
G1 X-0.9771573604060914 Y-1.3883248730964468
G3 X-0.8223350253807106 Y-1.5203045685279188 I2.0228426395939088 J2.215736040609137
G1 X-0.6979695431472082 Y-1.6167512690355328
G3 X-0.48984771573604063 Y-1.7715736040609138 I1.8705583756345179 J2.345177664974619
G1 X-0.35786802030456855 Y-1.8578680203045685
G3 X-0.16751269035532995 Y-1.9746192893401016 I1.6598984771573604 J2.5
G1 X-0.030456852791878174 Y-2.050761421319797
G3 X0.1903553299492386 Y-2.1624365482233503 I1.469543147208122 J2.6142131979695433
G1 X0.33248730964467005 Y-2.228426395939086
G3 X0.5279187817258884 Y-2.3096446700507616 I1.248730964467005 J2.7284263959390866
G1 X0.6751269035532994 Y-2.365482233502538
G3 X0.9289340101522843 Y-2.446700507614213 I1.050761421319797 J2.8096446700507616
G1 X1.0812182741116751 Y-2.489847715736041
G3 X1.2868020304568528 Y-2.5380710659898478 I0.799492385786802 J2.8908629441624365
G1 X1.4416243654822336 Y-2.5685279187817263
G3 X1.6903553299492384 Y-2.6091370558375635 I0.5913705583756345 J2.9416243654822334
G1 X1.8451776649746194 Y-2.626903553299492
G3 X2.0558375634517767 Y-2.6446700507614214 I0.3426395939086294 J2.9796954314720816
G1 X2.213197969543147 Y-2.6497461928934007
G3 X2.3477157360406093 Y-2.654822335025381 I0.13451776649746194 J2.9974619289340105
G1 X69.83756345177665 Y-2.6522842639593907
G1 X74.83756345177665 Y-2.6522842639593907
G1 X119.83756345177666 Y-2.6522842639593907
G1 X124.83756345177666 Y-2.6522842639593907
G1 X149.83756345177665 Y-2.6522842639593907
G1 X154.83756345177665 Y-2.6522842639593907
G1 X229.83756345177665 Y-2.6522842639593907
G1 X234.83756345177665 Y-2.6522842639593907
G1 X236.9467005076142 Y-2.6522842639593907
G3 X237.06345177664974 Y-2.6497461928934007 I0 J3
G1 X237.21827411167513 Y-2.6446700507614214
G3 X237.4467005076142 Y-2.626903553299492 I-0.11421319796954314 J2.9974619289340105
G1 X237.60406091370558 Y-2.6091370558375635
G3 X237.8502538071066 Y-2.5685279187817263 I-0.3426395939086294 J2.9796954314720816
G1 X238.005076142132 Y-2.5380710659898478
G3 X238.21319796954313 Y-2.489847715736041 I-0.5913705583756345 J2.9416243654822334
G1 X238.36548223350252 Y-2.446700507614213
G3 X238.61675126903552 Y-2.365482233502538 I-0.799492385786802 J2.8908629441624365
G1 X238.76395939086294 Y-2.3096446700507616
G3 X238.96192893401013 Y-2.228426395939086 I-1.050761421319797 J2.8096446700507616
G1 X239.10406091370558 Y-2.1624365482233503
G3 X239.3248730964467 Y-2.050761421319797 I-1.248730964467005 J2.7284263959390866
G1 X239.46192893401016 Y-1.9746192893401016
G3 X239.6522842639594 Y-1.8578680203045685 I-1.469543147208122 J2.6142131979695433
G1 X239.78172588832484 Y-1.7715736040609138
G3 X239.99238578680203 Y-1.6167512690355328 I-1.6598984771573604 J2.5
G1 X240.11421319796955 Y-1.5203045685279188
G3 X240.26903553299493 Y-1.3883248730964468 I-1.8705583756345179 J2.345177664974619
G1 X240.38578680203045 Y-1.281725888324873
G3 X240.57614213197968 Y-1.0913705583756346 I-2.0228426395939088 J2.215736040609137
G1 X240.68274111675126 Y-0.9746192893401016
G3 X240.8147208121827 Y-0.8197969543147209 I-2.215736040609137 J2.0228426395939088
G1 X240.91116751269033 Y-0.6979695431472082
G3 X241.06345177664974 Y-0.4873096446700508 I-2.345177664974619 J1.8705583756345179
G1 X241.15228426395936 Y-0.35786802030456855
G3 X241.26649746192894 Y-0.16751269035532995 I-2.5 J1.6598984771573604
G1 X241.34517766497464 Y-0.030456852791878174
G3 X241.45685279187816 Y0.1903553299492386 I-2.6142131979695433 J1.469543147208122
G1 X241.5228426395939 Y0.33248730964467005
G3 X241.60406091370558 Y0.5304568527918782 I-2.7284263959390866 J1.248730964467005
G1 X241.65989847715736 Y0.6776649746192893
G3 X241.74111675126903 Y0.9289340101522843 I-2.8096446700507616 J1.050761421319797
G1 X241.78426395939087 Y1.0812182741116751
G3 X241.83248730964468 Y1.2893401015228425 I-2.8908629441624365 J0.799492385786802
G1 X241.86294416243655 Y1.4416243654822336
G3 X241.9035532994924 Y1.6903553299492384 I-2.9416243654822334 J0.5913705583756345
G1 X241.92131979695432 Y1.8477157360406091
G3 X241.93654822335023 Y2.0558375634517767 I-2.9796954314720816 J0.3426395939086294
G1 X241.9441624365482 Y2.213197969543147
G3 X241.9467005076142 Y2.345177664974619 I-2.9974619289340105 J0.13451776649746194
G1 X241.9467005076142 Y84.5482233502538
G3 X241.9441624365482 Y84.68020304568527 I-3 J0
G1 X241.93654822335023 Y84.83756345177666
G3 X241.92131979695432 Y85.0482233502538 I-2.9974619289340105 J-0.13451776649746194
G1 X241.9035532994924 Y85.20304568527919
G3 X241.86294416243655 Y85.4517766497462 I-2.9796954314720816 J-0.3426395939086294
G1 X241.83248730964468 Y85.60659898477157
G3 X241.78426395939087 Y85.81218274111676 I-2.9416243654822334 J-0.5913705583756345
G1 X241.74111675126903 Y85.96446700507614
G3 X241.65989847715736 Y86.21827411167513 I-2.8908629441624365 J-0.799492385786802
G1 X241.60406091370558 Y86.36548223350253
G3 X241.5228426395939 Y86.56091370558374 I-2.8096446700507616 J-1.050761421319797
G1 X241.45685279187816 Y86.70304568527919
G3 X241.34517766497464 Y86.92639593908629 I-2.7284263959390866 J-1.248730964467005
G1 X241.26649746192894 Y87.06345177664974
G3 X241.15228426395936 Y87.251269035533 I-2.6142131979695433 J-1.469543147208122
G1 X241.06345177664974 Y87.38324873096447
G3 X240.91116751269033 Y87.59390862944161 I-2.5 J-1.6598984771573604
G1 X240.8147208121827 Y87.71573604060913
G3 X240.68274111675126 Y87.87055837563452 I-2.345177664974619 J-1.8705583756345179
G1 X240.57614213197968 Y87.98730964467005
G3 X240.38578680203045 Y88.17766497461929 I-2.215736040609137 J-2.0228426395939088
G1 X240.26903553299493 Y88.28426395939087
G3 X240.11421319796955 Y88.41370558375635 I-2.0228426395939088 J-2.215736040609137
G1 X239.99238578680203 Y88.51269035532995
G3 X239.78172588832484 Y88.66497461928932 I-1.8705583756345179 J-2.345177664974619
G1 X239.6522842639594 Y88.751269035533
G3 X239.46192893401016 Y88.86802030456852 I-1.6598984771573604 J-2.5
G1 X239.3248730964467 Y88.94670050761421
G3 X239.10406091370558 Y89.05837563451776 I-1.469543147208122 J-2.6142131979695433
G1 X238.96192893401013 Y89.12436548223351
G3 X238.76395939086294 Y89.20558375634516 I-1.248730964467005 J-2.7284263959390866
G1 X238.61675126903552 Y89.26142131979695
G3 X238.36548223350252 Y89.34263959390863 I-1.050761421319797 J-2.8096446700507616
G1 X238.21319796954313 Y89.38324873096447
G3 X238.005076142132 Y89.43401015228426 I-0.799492385786802 J-2.8908629441624365
G1 X237.8502538071066 Y89.46446700507614
G3 X237.60406091370558 Y89.50253807106598 I-0.5913705583756345 J-2.9416243654822334
G1 X237.4467005076142 Y89.5228426395939
G3 X237.21827411167513 Y89.53807106598985 I-0.3426395939086294 J-2.9796954314720816
G1 X237.06345177664974 Y89.54568527918782
G3 X236.9467005076142 Y89.5482233502538 I-0.11421319796954314 J-2.9974619289340105
G1 Z-10.5 F500
G1 X231.9467005076142 Y89.5482233502538 F550
G1 X231.9467005076142 Y89.5482233502538
G1 X156.94670050761422 Y89.5482233502538
G1 X151.94670050761422 Y89.5482233502538
G1 X86.94670050761422 Y89.5482233502538
G1 X81.94670050761422 Y89.5482233502538
G1 X76.94670050761421 Y89.5482233502538
G1 X71.94670050761421 Y89.5482233502538
G1 X2.3477157360406093 Y89.5482233502538
G3 X2.213197969543147 Y89.54568527918782 I0 J-3
G1 X2.0558375634517767 Y89.53807106598985
G3 X1.8451776649746194 Y89.5228426395939 I0.13451776649746194 J-2.9974619289340105
G1 X1.6903553299492384 Y89.50253807106598
G3 X1.4416243654822336 Y89.46446700507614 I0.3426395939086294 J-2.9796954314720816
G1 X1.2868020304568528 Y89.43401015228426
G3 X1.0812182741116751 Y89.38324873096447 I0.5913705583756345 J-2.9416243654822334
G1 X0.9289340101522843 Y89.34263959390863
G3 X0.6751269035532994 Y89.26142131979695 I0.799492385786802 J-2.8908629441624365
G1 X0.5279187817258884 Y89.20558375634516
G3 X0.33248730964467005 Y89.12436548223351 I1.050761421319797 J-2.8096446700507616
G1 X0.1903553299492386 Y89.05837563451776
G3 X-0.030456852791878174 Y88.94670050761421 I1.248730964467005 J-2.7284263959390866
G1 X-0.16751269035532995 Y88.86802030456852
G3 X-0.35786802030456855 Y88.751269035533 I1.469543147208122 J-2.6142131979695433
G1 X-0.48984771573604063 Y88.66497461928932
G3 X-0.6979695431472082 Y88.51269035532995 I1.6598984771573604 J-2.5
G1 X-0.8223350253807106 Y88.41370558375635
G3 X-0.9771573604060914 Y88.28426395939087 I1.8705583756345179 J-2.345177664974619
G1 X-1.0913705583756346 Y88.17766497461929
G3 X-1.2842639593908631 Y87.98730964467005 I2.0228426395939088 J-2.215736040609137
G1 X-1.3883248730964468 Y87.87055837563452
G3 X-1.5203045685279188 Y87.71573604060913 I2.215736040609137 J-2.0228426395939088
G1 X-1.619289340101523 Y87.59390862944161
G3 X-1.7715736040609138 Y87.38324873096447 I2.345177664974619 J-1.8705583756345179
G1 X-1.8578680203045685 Y87.251269035533
G3 X-1.9746192893401016 Y87.06345177664974 I2.5 J-1.6598984771573604
G1 X-2.050761421319797 Y86.92639593908629
G1 X-2.063451776649746 Y86.90609137055837
G3 X-2.16497461928934 Y86.70304568527919 I2.626903553299492 J-1.4492385786802031
G1 X-2.228426395939086 Y86.56091370558374
G3 X-2.312182741116751 Y86.36548223350253 I2.7284263959390866 J-1.248730964467005
G1 X-2.365482233502538 Y86.21827411167513
G3 X-2.449238578680203 Y85.96446700507614 I2.8096446700507616 J-1.050761421319797
G1 X-2.489847715736041 Y85.81218274111676
G3 X-2.5406091370558377 Y85.60659898477157 I2.8908629441624365 J-0.799492385786802
G1 X-2.5710659898477157 Y85.4517766497462
G3 X-2.6091370558375635 Y85.20304568527919 I2.9416243654822334 J-0.5913705583756345
G1 X-2.626903553299492 Y85.0482233502538
G3 X-2.6446700507614214 Y84.81979695431471 I2.9796954314720816 J-0.3426395939086294
G1 X-2.6522842639593907 Y84.66243654822335
G3 X-2.654822335025381 Y84.5482233502538 I2.9974619289340105 J-0.11421319796954314
G1 X-2.654822335025381 Y82.00253807106598
G1 X-2.654822335025381 Y27.002538071065988
G1 X-2.654822335025381 Y22.002538071065988
G1 X-2.654822335025381 Y7.00253807106599
G1 X-2.654822335025381 Y2.3477157360406093
G1 X-2.654822335025381 Y2.345177664974619
G3 X-2.6522842639593907 Y2.213197969543147 I3 J0
G1 X-2.6446700507614214 Y2.0558375634517767
G3 X-2.6421319796954315 Y2.00253807106599 I2.9974619289340105 J0.13451776649746194
G3 X-2.626903553299492 Y1.8477157360406091 I2.99492385786802 J0.18781725888324874
G1 X-2.6091370558375635 Y1.6903553299492384
G3 X-2.5710659898477157 Y1.4416243654822336 I2.9796954314720816 J0.3426395939086294
G1 X-2.5406091370558377 Y1.2893401015228425
G3 X-2.489847715736041 Y1.0812182741116751 I2.9416243654822334 J0.5913705583756345
G1 X-2.449238578680203 Y0.9289340101522843
G3 X-2.365482233502538 Y0.6776649746192893 I2.8908629441624365 J0.799492385786802
G1 X-2.312182741116751 Y0.5304568527918782
G3 X-2.228426395939086 Y0.33248730964467005 I2.8096446700507616 J1.050761421319797
G1 X-2.16497461928934 Y0.1903553299492386
G3 X-2.050761421319797 Y-0.030456852791878174 I2.7284263959390866 J1.248730964467005
G1 X-1.9746192893401016 Y-0.16751269035532995
G3 X-1.8578680203045685 Y-0.35786802030456855 I2.6142131979695433 J1.469543147208122
G1 X-1.7715736040609138 Y-0.4873096446700508
G3 X-1.619289340101523 Y-0.6979695431472082 I2.5 J1.6598984771573604
G1 X-1.5203045685279188 Y-0.8197969543147209
G3 X-1.3883248730964468 Y-0.9746192893401016 I2.345177664974619 J1.8705583756345179
G1 X-1.2842639593908631 Y-1.0913705583756346
G3 X-1.0913705583756346 Y-1.281725888324873 I2.215736040609137 J2.0228426395939088
G1 X-0.9771573604060914 Y-1.3883248730964468
G3 X-0.8223350253807106 Y-1.5203045685279188 I2.0228426395939088 J2.215736040609137
G1 X-0.6979695431472082 Y-1.6167512690355328
G3 X-0.48984771573604063 Y-1.7715736040609138 I1.8705583756345179 J2.345177664974619
G1 X-0.35786802030456855 Y-1.8578680203045685
G3 X-0.16751269035532995 Y-1.9746192893401016 I1.6598984771573604 J2.5
G1 X-0.030456852791878174 Y-2.050761421319797
G3 X0.1903553299492386 Y-2.1624365482233503 I1.469543147208122 J2.6142131979695433
G1 X0.33248730964467005 Y-2.228426395939086
G3 X0.5279187817258884 Y-2.3096446700507616 I1.248730964467005 J2.7284263959390866
G1 X0.6751269035532994 Y-2.365482233502538
G3 X0.9289340101522843 Y-2.446700507614213 I1.050761421319797 J2.8096446700507616
G1 X1.0812182741116751 Y-2.489847715736041
G3 X1.2868020304568528 Y-2.5380710659898478 I0.799492385786802 J2.8908629441624365
G1 X1.4416243654822336 Y-2.5685279187817263
G3 X1.6903553299492384 Y-2.6091370558375635 I0.5913705583756345 J2.9416243654822334
G1 X1.8451776649746194 Y-2.626903553299492
G3 X2.0558375634517767 Y-2.6446700507614214 I0.3426395939086294 J2.9796954314720816
G1 X2.213197969543147 Y-2.6497461928934007
G3 X2.3477157360406093 Y-2.654822335025381 I0.13451776649746194 J2.9974619289340105
G1 X69.83756345177665 Y-2.6522842639593907
G1 X74.83756345177665 Y-2.6522842639593907
G1 X119.83756345177666 Y-2.6522842639593907
G1 X124.83756345177666 Y-2.6522842639593907
G1 X149.83756345177665 Y-2.6522842639593907
G1 X154.83756345177665 Y-2.6522842639593907
G1 X229.83756345177665 Y-2.6522842639593907
G1 X234.83756345177665 Y-2.6522842639593907
G1 X236.9467005076142 Y-2.6522842639593907
G3 X237.06345177664974 Y-2.6497461928934007 I0 J3
G1 X237.21827411167513 Y-2.6446700507614214
G3 X237.4467005076142 Y-2.626903553299492 I-0.11421319796954314 J2.9974619289340105
G1 X237.60406091370558 Y-2.6091370558375635
G3 X237.8502538071066 Y-2.5685279187817263 I-0.3426395939086294 J2.9796954314720816
G1 X238.005076142132 Y-2.5380710659898478
G3 X238.21319796954313 Y-2.489847715736041 I-0.5913705583756345 J2.9416243654822334
G1 X238.36548223350252 Y-2.446700507614213
G3 X238.61675126903552 Y-2.365482233502538 I-0.799492385786802 J2.8908629441624365
G1 X238.76395939086294 Y-2.3096446700507616
G3 X238.96192893401013 Y-2.228426395939086 I-1.050761421319797 J2.8096446700507616
G1 X239.10406091370558 Y-2.1624365482233503
G3 X239.3248730964467 Y-2.050761421319797 I-1.248730964467005 J2.7284263959390866
G1 X239.46192893401016 Y-1.9746192893401016
G3 X239.6522842639594 Y-1.8578680203045685 I-1.469543147208122 J2.6142131979695433
G1 X239.78172588832484 Y-1.7715736040609138
G3 X239.99238578680203 Y-1.6167512690355328 I-1.6598984771573604 J2.5
G1 X240.11421319796955 Y-1.5203045685279188
G3 X240.26903553299493 Y-1.3883248730964468 I-1.8705583756345179 J2.345177664974619
G1 X240.38578680203045 Y-1.281725888324873
G3 X240.57614213197968 Y-1.0913705583756346 I-2.0228426395939088 J2.215736040609137
G1 X240.68274111675126 Y-0.9746192893401016
G3 X240.8147208121827 Y-0.8197969543147209 I-2.215736040609137 J2.0228426395939088
G1 X240.91116751269033 Y-0.6979695431472082
G3 X241.06345177664974 Y-0.4873096446700508 I-2.345177664974619 J1.8705583756345179
G1 X241.15228426395936 Y-0.35786802030456855
G3 X241.26649746192894 Y-0.16751269035532995 I-2.5 J1.6598984771573604
G1 X241.34517766497464 Y-0.030456852791878174
G3 X241.45685279187816 Y0.1903553299492386 I-2.6142131979695433 J1.469543147208122
G1 X241.5228426395939 Y0.33248730964467005
G3 X241.60406091370558 Y0.5304568527918782 I-2.7284263959390866 J1.248730964467005
G1 X241.65989847715736 Y0.6776649746192893
G3 X241.74111675126903 Y0.9289340101522843 I-2.8096446700507616 J1.050761421319797
G1 X241.78426395939087 Y1.0812182741116751
G3 X241.83248730964468 Y1.2893401015228425 I-2.8908629441624365 J0.799492385786802
G1 X241.86294416243655 Y1.4416243654822336
G3 X241.9035532994924 Y1.6903553299492384 I-2.9416243654822334 J0.5913705583756345
G1 X241.92131979695432 Y1.8477157360406091
G3 X241.93654822335023 Y2.0558375634517767 I-2.9796954314720816 J0.3426395939086294
G1 X241.9441624365482 Y2.213197969543147
G3 X241.9467005076142 Y2.345177664974619 I-2.9974619289340105 J0.13451776649746194
G1 X241.9467005076142 Y84.5482233502538
G3 X241.9441624365482 Y84.68020304568527 I-3 J0
G1 X241.93654822335023 Y84.83756345177666
G3 X241.92131979695432 Y85.0482233502538 I-2.9974619289340105 J-0.13451776649746194
G1 X241.9035532994924 Y85.20304568527919
G3 X241.86294416243655 Y85.4517766497462 I-2.9796954314720816 J-0.3426395939086294
G1 X241.83248730964468 Y85.60659898477157
G3 X241.78426395939087 Y85.81218274111676 I-2.9416243654822334 J-0.5913705583756345
G1 X241.74111675126903 Y85.96446700507614
G3 X241.65989847715736 Y86.21827411167513 I-2.8908629441624365 J-0.799492385786802
G1 X241.60406091370558 Y86.36548223350253
G3 X241.5228426395939 Y86.56091370558374 I-2.8096446700507616 J-1.050761421319797
G1 X241.45685279187816 Y86.70304568527919
G3 X241.34517766497464 Y86.92639593908629 I-2.7284263959390866 J-1.248730964467005
G1 X241.26649746192894 Y87.06345177664974
G3 X241.15228426395936 Y87.251269035533 I-2.6142131979695433 J-1.469543147208122
G1 X241.06345177664974 Y87.38324873096447
G3 X240.91116751269033 Y87.59390862944161 I-2.5 J-1.6598984771573604
G1 X240.8147208121827 Y87.71573604060913
G3 X240.68274111675126 Y87.87055837563452 I-2.345177664974619 J-1.8705583756345179
G1 X240.57614213197968 Y87.98730964467005
G3 X240.38578680203045 Y88.17766497461929 I-2.215736040609137 J-2.0228426395939088
G1 X240.26903553299493 Y88.28426395939087
G3 X240.11421319796955 Y88.41370558375635 I-2.0228426395939088 J-2.215736040609137
G1 X239.99238578680203 Y88.51269035532995
G3 X239.78172588832484 Y88.66497461928932 I-1.8705583756345179 J-2.345177664974619
G1 X239.6522842639594 Y88.751269035533
G3 X239.46192893401016 Y88.86802030456852 I-1.6598984771573604 J-2.5
G1 X239.3248730964467 Y88.94670050761421
G3 X239.10406091370558 Y89.05837563451776 I-1.469543147208122 J-2.6142131979695433
G1 X238.96192893401013 Y89.12436548223351
G3 X238.76395939086294 Y89.20558375634516 I-1.248730964467005 J-2.7284263959390866
G1 X238.61675126903552 Y89.26142131979695
G3 X238.36548223350252 Y89.34263959390863 I-1.050761421319797 J-2.8096446700507616
G1 X238.21319796954313 Y89.38324873096447
G3 X238.005076142132 Y89.43401015228426 I-0.799492385786802 J-2.8908629441624365
G1 X237.8502538071066 Y89.46446700507614
G3 X237.60406091370558 Y89.50253807106598 I-0.5913705583756345 J-2.9416243654822334
G1 X237.4467005076142 Y89.5228426395939
G3 X237.21827411167513 Y89.53807106598985 I-0.3426395939086294 J-2.9796954314720816
G1 X237.06345177664974 Y89.54568527918782
G3 X236.9467005076142 Y89.5482233502538 I-0.11421319796954314 J-2.9974619289340105
G1 Z-12 F500
G1 X231.9467005076142 Y89.5482233502538 F550
G1 X231.9467005076142 Y89.5482233502538
G1 X156.94670050761422 Y89.5482233502538
G1 X151.94670050761422 Y89.5482233502538
G1 X86.94670050761422 Y89.5482233502538
G1 X81.94670050761422 Y89.5482233502538
G1 X76.94670050761421 Y89.5482233502538
G1 X71.94670050761421 Y89.5482233502538
G1 X2.3477157360406093 Y89.5482233502538
G3 X2.213197969543147 Y89.54568527918782 I0 J-3
G1 X2.0558375634517767 Y89.53807106598985
G3 X1.8451776649746194 Y89.5228426395939 I0.13451776649746194 J-2.9974619289340105
G1 X1.6903553299492384 Y89.50253807106598
G3 X1.4416243654822336 Y89.46446700507614 I0.3426395939086294 J-2.9796954314720816
G1 X1.2868020304568528 Y89.43401015228426
G3 X1.0812182741116751 Y89.38324873096447 I0.5913705583756345 J-2.9416243654822334
G1 X0.9289340101522843 Y89.34263959390863
G3 X0.6751269035532994 Y89.26142131979695 I0.799492385786802 J-2.8908629441624365
G1 X0.5279187817258884 Y89.20558375634516
G3 X0.33248730964467005 Y89.12436548223351 I1.050761421319797 J-2.8096446700507616
G1 X0.1903553299492386 Y89.05837563451776
G3 X-0.030456852791878174 Y88.94670050761421 I1.248730964467005 J-2.7284263959390866
G1 X-0.16751269035532995 Y88.86802030456852
G3 X-0.35786802030456855 Y88.751269035533 I1.469543147208122 J-2.6142131979695433
G1 X-0.48984771573604063 Y88.66497461928932
G3 X-0.6979695431472082 Y88.51269035532995 I1.6598984771573604 J-2.5
G1 X-0.8223350253807106 Y88.41370558375635
G3 X-0.9771573604060914 Y88.28426395939087 I1.8705583756345179 J-2.345177664974619
G1 X-1.0913705583756346 Y88.17766497461929
G3 X-1.2842639593908631 Y87.98730964467005 I2.0228426395939088 J-2.215736040609137
G1 X-1.3883248730964468 Y87.87055837563452
G3 X-1.5203045685279188 Y87.71573604060913 I2.215736040609137 J-2.0228426395939088
G1 X-1.619289340101523 Y87.59390862944161
G3 X-1.7715736040609138 Y87.38324873096447 I2.345177664974619 J-1.8705583756345179
G1 X-1.8578680203045685 Y87.251269035533
G3 X-1.9746192893401016 Y87.06345177664974 I2.5 J-1.6598984771573604
G1 X-2.050761421319797 Y86.92639593908629
G1 X-2.063451776649746 Y86.90609137055837
G3 X-2.16497461928934 Y86.70304568527919 I2.626903553299492 J-1.4492385786802031
G1 X-2.228426395939086 Y86.56091370558374
G3 X-2.312182741116751 Y86.36548223350253 I2.7284263959390866 J-1.248730964467005
G1 X-2.365482233502538 Y86.21827411167513
G3 X-2.449238578680203 Y85.96446700507614 I2.8096446700507616 J-1.050761421319797
G1 X-2.489847715736041 Y85.81218274111676
G3 X-2.5406091370558377 Y85.60659898477157 I2.8908629441624365 J-0.799492385786802
G1 X-2.5710659898477157 Y85.4517766497462
G3 X-2.6091370558375635 Y85.20304568527919 I2.9416243654822334 J-0.5913705583756345
G1 X-2.626903553299492 Y85.0482233502538
G3 X-2.6446700507614214 Y84.81979695431471 I2.9796954314720816 J-0.3426395939086294
G1 X-2.6522842639593907 Y84.66243654822335
G3 X-2.654822335025381 Y84.5482233502538 I2.9974619289340105 J-0.11421319796954314
G1 X-2.654822335025381 Y82.00253807106598
G1 X-2.654822335025381 Y27.002538071065988
G1 X-2.654822335025381 Y22.002538071065988
G1 X-2.654822335025381 Y7.00253807106599
G1 X-2.654822335025381 Y2.3477157360406093
G1 X-2.654822335025381 Y2.345177664974619
G3 X-2.6522842639593907 Y2.213197969543147 I3 J0
G1 X-2.6446700507614214 Y2.0558375634517767
G3 X-2.6421319796954315 Y2.00253807106599 I2.9974619289340105 J0.13451776649746194
G3 X-2.626903553299492 Y1.8477157360406091 I2.99492385786802 J0.18781725888324874
G1 X-2.6091370558375635 Y1.6903553299492384
G3 X-2.5710659898477157 Y1.4416243654822336 I2.9796954314720816 J0.3426395939086294
G1 X-2.5406091370558377 Y1.2893401015228425
G3 X-2.489847715736041 Y1.0812182741116751 I2.9416243654822334 J0.5913705583756345
G1 X-2.449238578680203 Y0.9289340101522843
G3 X-2.365482233502538 Y0.6776649746192893 I2.8908629441624365 J0.799492385786802
G1 X-2.312182741116751 Y0.5304568527918782
G3 X-2.228426395939086 Y0.33248730964467005 I2.8096446700507616 J1.050761421319797
G1 X-2.16497461928934 Y0.1903553299492386
G3 X-2.050761421319797 Y-0.030456852791878174 I2.7284263959390866 J1.248730964467005
G1 X-1.9746192893401016 Y-0.16751269035532995
G3 X-1.8578680203045685 Y-0.35786802030456855 I2.6142131979695433 J1.469543147208122
G1 X-1.7715736040609138 Y-0.4873096446700508
G3 X-1.619289340101523 Y-0.6979695431472082 I2.5 J1.6598984771573604
G1 X-1.5203045685279188 Y-0.8197969543147209
G3 X-1.3883248730964468 Y-0.9746192893401016 I2.345177664974619 J1.8705583756345179
G1 X-1.2842639593908631 Y-1.0913705583756346
G3 X-1.0913705583756346 Y-1.281725888324873 I2.215736040609137 J2.0228426395939088
G1 X-0.9771573604060914 Y-1.3883248730964468
G3 X-0.8223350253807106 Y-1.5203045685279188 I2.0228426395939088 J2.215736040609137
G1 X-0.6979695431472082 Y-1.6167512690355328
G3 X-0.48984771573604063 Y-1.7715736040609138 I1.8705583756345179 J2.345177664974619
G1 X-0.35786802030456855 Y-1.8578680203045685
G3 X-0.16751269035532995 Y-1.9746192893401016 I1.6598984771573604 J2.5
G1 X-0.030456852791878174 Y-2.050761421319797
G3 X0.1903553299492386 Y-2.1624365482233503 I1.469543147208122 J2.6142131979695433
G1 X0.33248730964467005 Y-2.228426395939086
G3 X0.5279187817258884 Y-2.3096446700507616 I1.248730964467005 J2.7284263959390866
G1 X0.6751269035532994 Y-2.365482233502538
G3 X0.9289340101522843 Y-2.446700507614213 I1.050761421319797 J2.8096446700507616
G1 X1.0812182741116751 Y-2.489847715736041
G3 X1.2868020304568528 Y-2.5380710659898478 I0.799492385786802 J2.8908629441624365
G1 X1.4416243654822336 Y-2.5685279187817263
G3 X1.6903553299492384 Y-2.6091370558375635 I0.5913705583756345 J2.9416243654822334
G1 X1.8451776649746194 Y-2.626903553299492
G3 X2.0558375634517767 Y-2.6446700507614214 I0.3426395939086294 J2.9796954314720816
G1 X2.213197969543147 Y-2.6497461928934007
G3 X2.3477157360406093 Y-2.654822335025381 I0.13451776649746194 J2.9974619289340105
G1 X69.83756345177665 Y-2.6522842639593907
G1 X74.83756345177665 Y-2.6522842639593907
G1 X119.83756345177666 Y-2.6522842639593907
G1 X124.83756345177666 Y-2.6522842639593907
G1 X149.83756345177665 Y-2.6522842639593907
G1 X154.83756345177665 Y-2.6522842639593907
G1 X229.83756345177665 Y-2.6522842639593907
G1 X234.83756345177665 Y-2.6522842639593907
G1 X236.9467005076142 Y-2.6522842639593907
G3 X237.06345177664974 Y-2.6497461928934007 I0 J3
G1 X237.21827411167513 Y-2.6446700507614214
G3 X237.4467005076142 Y-2.626903553299492 I-0.11421319796954314 J2.9974619289340105
G1 X237.60406091370558 Y-2.6091370558375635
G3 X237.8502538071066 Y-2.5685279187817263 I-0.3426395939086294 J2.9796954314720816
G1 X238.005076142132 Y-2.5380710659898478
G3 X238.21319796954313 Y-2.489847715736041 I-0.5913705583756345 J2.9416243654822334
G1 X238.36548223350252 Y-2.446700507614213
G3 X238.61675126903552 Y-2.365482233502538 I-0.799492385786802 J2.8908629441624365
G1 X238.76395939086294 Y-2.3096446700507616
G3 X238.96192893401013 Y-2.228426395939086 I-1.050761421319797 J2.8096446700507616
G1 X239.10406091370558 Y-2.1624365482233503
G3 X239.3248730964467 Y-2.050761421319797 I-1.248730964467005 J2.7284263959390866
G1 X239.46192893401016 Y-1.9746192893401016
G3 X239.6522842639594 Y-1.8578680203045685 I-1.469543147208122 J2.6142131979695433
G1 X239.78172588832484 Y-1.7715736040609138
G3 X239.99238578680203 Y-1.6167512690355328 I-1.6598984771573604 J2.5
G1 X240.11421319796955 Y-1.5203045685279188
G3 X240.26903553299493 Y-1.3883248730964468 I-1.8705583756345179 J2.345177664974619
G1 X240.38578680203045 Y-1.281725888324873
G3 X240.57614213197968 Y-1.0913705583756346 I-2.0228426395939088 J2.215736040609137
G1 X240.68274111675126 Y-0.9746192893401016
G3 X240.8147208121827 Y-0.8197969543147209 I-2.215736040609137 J2.0228426395939088
G1 X240.91116751269033 Y-0.6979695431472082
G3 X241.06345177664974 Y-0.4873096446700508 I-2.345177664974619 J1.8705583756345179
G1 X241.15228426395936 Y-0.35786802030456855
G3 X241.26649746192894 Y-0.16751269035532995 I-2.5 J1.6598984771573604
G1 X241.34517766497464 Y-0.030456852791878174
G3 X241.45685279187816 Y0.1903553299492386 I-2.6142131979695433 J1.469543147208122
G1 X241.5228426395939 Y0.33248730964467005
G3 X241.60406091370558 Y0.5304568527918782 I-2.7284263959390866 J1.248730964467005
G1 X241.65989847715736 Y0.6776649746192893
G3 X241.74111675126903 Y0.9289340101522843 I-2.8096446700507616 J1.050761421319797
G1 X241.78426395939087 Y1.0812182741116751
G3 X241.83248730964468 Y1.2893401015228425 I-2.8908629441624365 J0.799492385786802
G1 X241.86294416243655 Y1.4416243654822336
G3 X241.9035532994924 Y1.6903553299492384 I-2.9416243654822334 J0.5913705583756345
G1 X241.92131979695432 Y1.8477157360406091
G3 X241.93654822335023 Y2.0558375634517767 I-2.9796954314720816 J0.3426395939086294
G1 X241.9441624365482 Y2.213197969543147
G3 X241.9467005076142 Y2.345177664974619 I-2.9974619289340105 J0.13451776649746194
G1 X241.9467005076142 Y84.5482233502538
G3 X241.9441624365482 Y84.68020304568527 I-3 J0
G1 X241.93654822335023 Y84.83756345177666
G3 X241.92131979695432 Y85.0482233502538 I-2.9974619289340105 J-0.13451776649746194
G1 X241.9035532994924 Y85.20304568527919
G3 X241.86294416243655 Y85.4517766497462 I-2.9796954314720816 J-0.3426395939086294
G1 X241.83248730964468 Y85.60659898477157
G3 X241.78426395939087 Y85.81218274111676 I-2.9416243654822334 J-0.5913705583756345
G1 X241.74111675126903 Y85.96446700507614
G3 X241.65989847715736 Y86.21827411167513 I-2.8908629441624365 J-0.799492385786802
G1 X241.60406091370558 Y86.36548223350253
G3 X241.5228426395939 Y86.56091370558374 I-2.8096446700507616 J-1.050761421319797
G1 X241.45685279187816 Y86.70304568527919
G3 X241.34517766497464 Y86.92639593908629 I-2.7284263959390866 J-1.248730964467005
G1 X241.26649746192894 Y87.06345177664974
G3 X241.15228426395936 Y87.251269035533 I-2.6142131979695433 J-1.469543147208122
G1 X241.06345177664974 Y87.38324873096447
G3 X240.91116751269033 Y87.59390862944161 I-2.5 J-1.6598984771573604
G1 X240.8147208121827 Y87.71573604060913
G3 X240.68274111675126 Y87.87055837563452 I-2.345177664974619 J-1.8705583756345179
G1 X240.57614213197968 Y87.98730964467005
G3 X240.38578680203045 Y88.17766497461929 I-2.215736040609137 J-2.0228426395939088
G1 X240.26903553299493 Y88.28426395939087
G3 X240.11421319796955 Y88.41370558375635 I-2.0228426395939088 J-2.215736040609137
G1 X239.99238578680203 Y88.51269035532995
G3 X239.78172588832484 Y88.66497461928932 I-1.8705583756345179 J-2.345177664974619
G1 X239.6522842639594 Y88.751269035533
G3 X239.46192893401016 Y88.86802030456852 I-1.6598984771573604 J-2.5
G1 X239.3248730964467 Y88.94670050761421
G3 X239.10406091370558 Y89.05837563451776 I-1.469543147208122 J-2.6142131979695433
G1 X238.96192893401013 Y89.12436548223351
G3 X238.76395939086294 Y89.20558375634516 I-1.248730964467005 J-2.7284263959390866
G1 X238.61675126903552 Y89.26142131979695
G3 X238.36548223350252 Y89.34263959390863 I-1.050761421319797 J-2.8096446700507616
G1 X238.21319796954313 Y89.38324873096447
G3 X238.005076142132 Y89.43401015228426 I-0.799492385786802 J-2.8908629441624365
G1 X237.8502538071066 Y89.46446700507614
G3 X237.60406091370558 Y89.50253807106598 I-0.5913705583756345 J-2.9416243654822334
G1 X237.4467005076142 Y89.5228426395939
G3 X237.21827411167513 Y89.53807106598985 I-0.3426395939086294 J-2.9796954314720816
G1 X237.06345177664974 Y89.54568527918782
G3 X236.9467005076142 Y89.5482233502538 I-0.11421319796954314 J-2.9974619289340105
G1 Z-13.5 F500
G1 X231.9467005076142 Y89.5482233502538 F550
G1 X231.9467005076142 Y89.5482233502538
G1 X156.94670050761422 Y89.5482233502538
G1 X151.94670050761422 Y89.5482233502538
G1 X86.94670050761422 Y89.5482233502538
G1 X81.94670050761422 Y89.5482233502538
G1 X76.94670050761421 Y89.5482233502538
G1 X71.94670050761421 Y89.5482233502538
G1 X2.3477157360406093 Y89.5482233502538
G3 X2.213197969543147 Y89.54568527918782 I0 J-3
G1 X2.0558375634517767 Y89.53807106598985
G3 X1.8451776649746194 Y89.5228426395939 I0.13451776649746194 J-2.9974619289340105
G1 X1.6903553299492384 Y89.50253807106598
G3 X1.4416243654822336 Y89.46446700507614 I0.3426395939086294 J-2.9796954314720816
G1 X1.2868020304568528 Y89.43401015228426
G3 X1.0812182741116751 Y89.38324873096447 I0.5913705583756345 J-2.9416243654822334
G1 X0.9289340101522843 Y89.34263959390863
G3 X0.6751269035532994 Y89.26142131979695 I0.799492385786802 J-2.8908629441624365
G1 X0.5279187817258884 Y89.20558375634516
G3 X0.33248730964467005 Y89.12436548223351 I1.050761421319797 J-2.8096446700507616
G1 X0.1903553299492386 Y89.05837563451776
G3 X-0.030456852791878174 Y88.94670050761421 I1.248730964467005 J-2.7284263959390866
G1 X-0.16751269035532995 Y88.86802030456852
G3 X-0.35786802030456855 Y88.751269035533 I1.469543147208122 J-2.6142131979695433
G1 X-0.48984771573604063 Y88.66497461928932
G3 X-0.6979695431472082 Y88.51269035532995 I1.6598984771573604 J-2.5
G1 X-0.8223350253807106 Y88.41370558375635
G3 X-0.9771573604060914 Y88.28426395939087 I1.8705583756345179 J-2.345177664974619
G1 X-1.0913705583756346 Y88.17766497461929
G3 X-1.2842639593908631 Y87.98730964467005 I2.0228426395939088 J-2.215736040609137
G1 X-1.3883248730964468 Y87.87055837563452
G3 X-1.5203045685279188 Y87.71573604060913 I2.215736040609137 J-2.0228426395939088
G1 X-1.619289340101523 Y87.59390862944161
G3 X-1.7715736040609138 Y87.38324873096447 I2.345177664974619 J-1.8705583756345179
G1 X-1.8578680203045685 Y87.251269035533
G3 X-1.9746192893401016 Y87.06345177664974 I2.5 J-1.6598984771573604
G1 X-2.050761421319797 Y86.92639593908629
G1 X-2.063451776649746 Y86.90609137055837
G3 X-2.16497461928934 Y86.70304568527919 I2.626903553299492 J-1.4492385786802031
G1 X-2.228426395939086 Y86.56091370558374
G3 X-2.312182741116751 Y86.36548223350253 I2.7284263959390866 J-1.248730964467005
G1 X-2.365482233502538 Y86.21827411167513
G3 X-2.449238578680203 Y85.96446700507614 I2.8096446700507616 J-1.050761421319797
G1 X-2.489847715736041 Y85.81218274111676
G3 X-2.5406091370558377 Y85.60659898477157 I2.8908629441624365 J-0.799492385786802
G1 X-2.5710659898477157 Y85.4517766497462
G3 X-2.6091370558375635 Y85.20304568527919 I2.9416243654822334 J-0.5913705583756345
G1 X-2.626903553299492 Y85.0482233502538
G3 X-2.6446700507614214 Y84.81979695431471 I2.9796954314720816 J-0.3426395939086294
G1 X-2.6522842639593907 Y84.66243654822335
G3 X-2.654822335025381 Y84.5482233502538 I2.9974619289340105 J-0.11421319796954314
G1 X-2.654822335025381 Y82.00253807106598
G1 X-2.654822335025381 Y27.002538071065988
G1 X-2.654822335025381 Y22.002538071065988
G1 X-2.654822335025381 Y7.00253807106599
G1 X-2.654822335025381 Y2.3477157360406093
G1 X-2.654822335025381 Y2.345177664974619
G3 X-2.6522842639593907 Y2.213197969543147 I3 J0
G1 X-2.6446700507614214 Y2.0558375634517767
G3 X-2.6421319796954315 Y2.00253807106599 I2.9974619289340105 J0.13451776649746194
G3 X-2.626903553299492 Y1.8477157360406091 I2.99492385786802 J0.18781725888324874
G1 X-2.6091370558375635 Y1.6903553299492384
G3 X-2.5710659898477157 Y1.4416243654822336 I2.9796954314720816 J0.3426395939086294
G1 X-2.5406091370558377 Y1.2893401015228425
G3 X-2.489847715736041 Y1.0812182741116751 I2.9416243654822334 J0.5913705583756345
G1 X-2.449238578680203 Y0.9289340101522843
G3 X-2.365482233502538 Y0.6776649746192893 I2.8908629441624365 J0.799492385786802
G1 X-2.312182741116751 Y0.5304568527918782
G3 X-2.228426395939086 Y0.33248730964467005 I2.8096446700507616 J1.050761421319797
G1 X-2.16497461928934 Y0.1903553299492386
G3 X-2.050761421319797 Y-0.030456852791878174 I2.7284263959390866 J1.248730964467005
G1 X-1.9746192893401016 Y-0.16751269035532995
G3 X-1.8578680203045685 Y-0.35786802030456855 I2.6142131979695433 J1.469543147208122
G1 X-1.7715736040609138 Y-0.4873096446700508
G3 X-1.619289340101523 Y-0.6979695431472082 I2.5 J1.6598984771573604
G1 X-1.5203045685279188 Y-0.8197969543147209
G3 X-1.3883248730964468 Y-0.9746192893401016 I2.345177664974619 J1.8705583756345179
G1 X-1.2842639593908631 Y-1.0913705583756346
G3 X-1.0913705583756346 Y-1.281725888324873 I2.215736040609137 J2.0228426395939088
G1 X-0.9771573604060914 Y-1.3883248730964468
G3 X-0.8223350253807106 Y-1.5203045685279188 I2.0228426395939088 J2.215736040609137
G1 X-0.6979695431472082 Y-1.6167512690355328
G3 X-0.48984771573604063 Y-1.7715736040609138 I1.8705583756345179 J2.345177664974619
G1 X-0.35786802030456855 Y-1.8578680203045685
