(Generated by PartKam Version 0.05)

G21 G90 G40

(profile 1)
G0 Z15
T0 M6
G17
M3
G0 X236.6994923857868 Y89.45253807106599

(pocket 2)
G0 Z15
G0 X197.0994923857868 Y44.85456852791878
G1 Z-1.5 F500
G1 X41.6979695431472 Y44.85532994923858 F550
G1 X41.6979695431472 Y43.35279187817258
G1 X41.6979695431472 Y41.85279187817259
G1 X197.0989847715736 Y41.85279187817259
G1 X197.0989847715736 Y44.85532994923858
G1 X199.4994923857868 Y47.254568527918785 F550
G1 X39.296954314720814 Y47.253807106598984 F550
G1 X39.296954314720814 Y43.35279187817258
G1 X39.296954314720814 Y39.45177664974619
G1 X199.5 Y39.45177664974619
G1 X199.5 Y47.253807106598984
G1 X201.8994923857868 Y49.654568527918784 F550
G1 X36.89593908629442 Y49.65482233502538 F550
G1 X36.898477157360404 Y43.35279187817258
G1 X36.89593908629442 Y37.0507614213198
G1 X201.8984771573604 Y37.0507614213198
G1 X201.8984771573604 Y49.65482233502538
G1 X204.2994923857868 Y52.05456852791878 F550
G1 X34.49746192893401 Y52.055837563451774 F550
G1 X34.49746192893401 Y43.35279187817258
G1 X34.49746192893401 Y34.652284263959395
G1 X204.29949238578678 Y34.652284263959395
G1 X204.29949238578678 Y52.055837563451774
G1 X206.6994923857868 Y54.45456852791878 F550
G1 X32.09644670050761 Y54.454314720812185 F550
G1 X32.09644670050761 Y43.35279187817258
G1 X32.09644670050761 Y32.251269035533
G1 X206.7005076142132 Y32.251269035533
G1 X206.7005076142132 Y54.454314720812185
G1 X209.0994923857868 Y56.85456852791878 F550
G1 X29.697969543147206 Y56.85532994923858 F550
G1 X29.697969543147206 Y43.35279187817258
G1 X29.697969543147206 Y29.85279187817259
G1 X209.09898477157358 Y29.85279187817259
G1 X209.09898477157358 Y56.85532994923858
G1 X211.4994923857868 Y59.254568527918785 F550
G1 X27.29695431472081 Y59.253807106598984 F550
G1 X27.29695431472081 Y43.35279187817258
G1 X27.29695431472081 Y27.451776649746193
G1 X211.5 Y27.451776649746193
G1 X211.5 Y59.253807106598984
G1 X213.8994923857868 Y61.654568527918784 F550
G1 X24.895939086294415 Y61.65482233502538 F550
G1 X24.898477157360407 Y43.35279187817258
G1 X24.895939086294415 Y25.050761421319798
G1 X213.8984771573604 Y25.050761421319798
G1 X213.8984771573604 Y61.65482233502538
G1 X216.2994923857868 Y64.05456852791878 F550
G1 X22.49746192893401 Y64.05583756345177 F550
G1 X22.49746192893401 Y62.40355329949239
G1 X22.49746192893401 Y43.35279187817258
G1 X22.49746192893401 Y24.30203045685279
G1 X22.49746192893401 Y22.65228426395939
G1 X216.29949238578678 Y22.65228426395939
G1 X216.29949238578678 Y64.05583756345177
G1 X218.6994923857868 Y66.45456852791878 F550
G1 X20.096446700507613 Y66.45431472081218 F550
G1 X20.096446700507613 Y62.40355329949239
G1 X20.096446700507613 Y43.35279187817258
G1 X20.096446700507613 Y24.30203045685279
G1 X20.096446700507613 Y20.251269035532996
G1 X218.70050761421322 Y20.251269035532996
G1 X218.70050761421322 Y66.45431472081218
G1 X221.0994923857868 Y68.85456852791879 F550
G1 X17.695431472081218 Y68.85532994923858 F550
G1 X17.695431472081218 Y62.40355329949239
G1 X17.697969543147206 Y43.35279187817258
G1 X17.695431472081218 Y24.30203045685279
G1 X17.697969543147206 Y17.85279187817259
G1 X221.0989847715736 Y17.85279187817259
G1 X221.0989847715736 Y68.85532994923858
G1 X223.4994923857868 Y71.25456852791878 F550
G1 X15.296954314720812 Y71.25380710659898 F550
G1 X15.296954314720812 Y62.401015228426395
G1 X15.296954314720812 Y43.35279187817258
G1 X15.296954314720812 Y24.30203045685279
G1 X15.296954314720812 Y15.451776649746193
G1 X223.5 Y15.451776649746193
G1 X223.5 Y71.25380710659898
G1 X225.8994923857868 Y73.65456852791878 F550
G1 X12.895939086294417 Y73.65482233502539 F550
G1 X12.895939086294417 Y62.401015228426395
G1 X12.898477157360407 Y43.35279187817258
G1 X12.895939086294417 Y24.30203045685279
G1 X12.895939086294417 Y13.050761421319796
G1 X225.89847715736042 Y13.050761421319796
G1 X225.89847715736042 Y73.65482233502539
G1 X228.2994923857868 Y76.05456852791878 F550
G1 X10.497461928934012 Y76.05583756345177 F550
G1 X10.497461928934012 Y62.401015228426395
G1 X10.497461928934012 Y43.35279187817258
G1 X10.497461928934012 Y24.30203045685279
G1 X10.497461928934012 Y10.652284263959391
G1 X228.2994923857868 Y10.652284263959391
G1 X228.2994923857868 Y76.05583756345177
G1 X230.6994923857868 Y78.45456852791878 F550
G1 X8.096446700507615 Y78.45431472081218 F550
G1 X8.096446700507615 Y62.401015228426395
G1 X8.096446700507615 Y43.35279187817258
G1 X8.096446700507615 Y24.30203045685279
G1 X8.096446700507615 Y8.251269035532996
G1 X230.70050761421322 Y8.251269035532996
G1 X230.70050761421322 Y78.45431472081218
G0 Z15
G0 X197.0994923857868 Y44.85456852791878
G1 Z-3 F500
G1 X41.6979695431472 Y44.85532994923858 F550
G1 X41.6979695431472 Y43.35279187817258
G1 X41.6979695431472 Y41.85279187817259
G1 X197.0989847715736 Y41.85279187817259
G1 X197.0989847715736 Y44.85532994923858
G1 X199.4994923857868 Y47.254568527918785 F550
G1 X39.296954314720814 Y47.253807106598984 F550
G1 X39.296954314720814 Y43.35279187817258
G1 X39.296954314720814 Y39.45177664974619
G1 X199.5 Y39.45177664974619
G1 X199.5 Y47.253807106598984
G1 X201.8994923857868 Y49.654568527918784 F550
G1 X36.89593908629442 Y49.65482233502538 F550
G1 X36.898477157360404 Y43.35279187817258
G1 X36.89593908629442 Y37.0507614213198
G1 X201.8984771573604 Y37.0507614213198
G1 X201.8984771573604 Y49.65482233502538
G1 X204.2994923857868 Y52.05456852791878 F550
G1 X34.49746192893401 Y52.055837563451774 F550
G1 X34.49746192893401 Y43.35279187817258
G1 X34.49746192893401 Y34.652284263959395
G1 X204.29949238578678 Y34.652284263959395
G1 X204.29949238578678 Y52.055837563451774
G1 X206.6994923857868 Y54.45456852791878 F550
G1 X32.09644670050761 Y54.454314720812185 F550
G1 X32.09644670050761 Y43.35279187817258
G1 X32.09644670050761 Y32.251269035533
G1 X206.7005076142132 Y32.251269035533
G1 X206.7005076142132 Y54.454314720812185
G1 X209.0994923857868 Y56.85456852791878 F550
G1 X29.697969543147206 Y56.85532994923858 F550
G1 X29.697969543147206 Y43.35279187817258
G1 X29.697969543147206 Y29.85279187817259
G1 X209.09898477157358 Y29.85279187817259
G1 X209.09898477157358 Y56.85532994923858
G1 X211.4994923857868 Y59.254568527918785 F550
G1 X27.29695431472081 Y59.253807106598984 F550
G1 X27.29695431472081 Y43.35279187817258
G1 X27.29695431472081 Y27.451776649746193
G1 X211.5 Y27.451776649746193
G1 X211.5 Y59.253807106598984
G1 X213.8994923857868 Y61.654568527918784 F550
G1 X24.895939086294415 Y61.65482233502538 F550
G1 X24.898477157360407 Y43.35279187817258
G1 X24.895939086294415 Y25.050761421319798
G1 X213.8984771573604 Y25.050761421319798
G1 X213.8984771573604 Y61.65482233502538
G1 X216.2994923857868 Y64.05456852791878 F550
G1 X22.49746192893401 Y64.05583756345177 F550
G1 X22.49746192893401 Y62.40355329949239
G1 X22.49746192893401 Y43.35279187817258
G1 X22.49746192893401 Y24.30203045685279
G1 X22.49746192893401 Y22.65228426395939
G1 X216.29949238578678 Y22.65228426395939
G1 X216.29949238578678 Y64.05583756345177
G1 X218.6994923857868 Y66.45456852791878 F550
G1 X20.096446700507613 Y66.45431472081218 F550
G1 X20.096446700507613 Y62.40355329949239
G1 X20.096446700507613 Y43.35279187817258
G1 X20.096446700507613 Y24.30203045685279
G1 X20.096446700507613 Y20.251269035532996
G1 X218.70050761421322 Y20.251269035532996
G1 X218.70050761421322 Y66.45431472081218
G1 X221.0994923857868 Y68.85456852791879 F550
G1 X17.695431472081218 Y68.85532994923858 F550
G1 X17.695431472081218 Y62.40355329949239
G1 X17.697969543147206 Y43.35279187817258
G1 X17.695431472081218 Y24.30203045685279
G1 X17.697969543147206 Y17.85279187817259
G1 X221.0989847715736 Y17.85279187817259
G1 X221.0989847715736 Y68.85532994923858
G1 X223.4994923857868 Y71.25456852791878 F550
G1 X15.296954314720812 Y71.25380710659898 F550
G1 X15.296954314720812 Y62.401015228426395
G1 X15.296954314720812 Y43.35279187817258
G1 X15.296954314720812 Y24.30203045685279
G1 X15.296954314720812 Y15.451776649746193
G1 X223.5 Y15.451776649746193
G1 X223.5 Y71.25380710659898
G1 X225.8994923857868 Y73.65456852791878 F550
G1 X12.895939086294417 Y73.65482233502539 F550
G1 X12.895939086294417 Y62.401015228426395
G1 X12.898477157360407 Y43.35279187817258
G1 X12.895939086294417 Y24.30203045685279
G1 X12.895939086294417 Y13.050761421319796
G1 X225.89847715736042 Y13.050761421319796
G1 X225.89847715736042 Y73.65482233502539
G1 X228.2994923857868 Y76.05456852791878 F550
G1 X10.497461928934012 Y76.05583756345177 F550
G1 X10.497461928934012 Y62.401015228426395
G1 X10.497461928934012 Y43.35279187817258
G1 X10.497461928934012 Y24.30203045685279
G1 X10.497461928934012 Y10.652284263959391
G1 X228.2994923857868 Y10.652284263959391
G1 X228.2994923857868 Y76.05583756345177
G1 X230.6994923857868 Y78.45456852791878 F550
G1 X8.096446700507615 Y78.45431472081218 F550
G1 X8.096446700507615 Y62.401015228426395
G1 X8.096446700507615 Y43.35279187817258
G1 X8.096446700507615 Y24.30203045685279
G1 X8.096446700507615 Y8.251269035532996
G1 X230.70050761421322 Y8.251269035532996
G1 X230.70050761421322 Y78.45431472081218
G0 Z15
G0 X197.0994923857868 Y44.85456852791878
G1 Z-4.5 F500
G1 X41.6979695431472 Y44.85532994923858 F550
G1 X41.6979695431472 Y43.35279187817258
G1 X41.6979695431472 Y41.85279187817259
G1 X197.0989847715736 Y41.85279187817259
G1 X197.0989847715736 Y44.85532994923858
G1 X199.4994923857868 Y47.254568527918785 F550
G1 X39.296954314720814 Y47.253807106598984 F550
G1 X39.296954314720814 Y43.35279187817258
G1 X39.296954314720814 Y39.45177664974619
G1 X199.5 Y39.45177664974619
G1 X199.5 Y47.253807106598984
G1 X201.8994923857868 Y49.654568527918784 F550
G1 X36.89593908629442 Y49.65482233502538 F550
G1 X36.898477157360404 Y43.35279187817258
G1 X36.89593908629442 Y37.0507614213198
G1 X201.8984771573604 Y37.0507614213198
G1 X201.8984771573604 Y49.65482233502538
G1 X204.2994923857868 Y52.05456852791878 F550
G1 X34.49746192893401 Y52.055837563451774 F550
G1 X34.49746192893401 Y43.35279187817258
G1 X34.49746192893401 Y34.652284263959395
G1 X204.29949238578678 Y34.652284263959395
G1 X204.29949238578678 Y52.055837563451774
G1 X206.6994923857868 Y54.45456852791878 F550
G1 X32.09644670050761 Y54.454314720812185 F550
G1 X32.09644670050761 Y43.35279187817258
G1 X32.09644670050761 Y32.251269035533
G1 X206.7005076142132 Y32.251269035533
G1 X206.7005076142132 Y54.454314720812185
G1 X209.0994923857868 Y56.85456852791878 F550
G1 X29.697969543147206 Y56.85532994923858 F550
G1 X29.697969543147206 Y43.35279187817258
G1 X29.697969543147206 Y29.85279187817259
G1 X209.09898477157358 Y29.85279187817259
G1 X209.09898477157358 Y56.85532994923858
G1 X211.4994923857868 Y59.254568527918785 F550
G1 X27.29695431472081 Y59.253807106598984 F550
G1 X27.29695431472081 Y43.35279187817258
G1 X27.29695431472081 Y27.451776649746193
G1 X211.5 Y27.451776649746193
G1 X211.5 Y59.253807106598984
G1 X213.8994923857868 Y61.654568527918784 F550
G1 X24.895939086294415 Y61.65482233502538 F550
G1 X24.898477157360407 Y43.35279187817258
G1 X24.895939086294415 Y25.050761421319798
G1 X213.8984771573604 Y25.050761421319798
G1 X213.8984771573604 Y61.65482233502538
G1 X216.2994923857868 Y64.05456852791878 F550
G1 X22.49746192893401 Y64.05583756345177 F550
G1 X22.49746192893401 Y62.40355329949239
G1 X22.49746192893401 Y43.35279187817258
G1 X22.49746192893401 Y24.30203045685279
G1 X22.49746192893401 Y22.65228426395939
G1 X216.29949238578678 Y22.65228426395939
G1 X216.29949238578678 Y64.05583756345177
G1 X218.6994923857868 Y66.45456852791878 F550
G1 X20.096446700507613 Y66.45431472081218 F550
G1 X20.096446700507613 Y62.40355329949239
G1 X20.096446700507613 Y43.35279187817258
G1 X20.096446700507613 Y24.30203045685279
G1 X20.096446700507613 Y20.251269035532996
G1 X218.70050761421322 Y20.251269035532996
G1 X218.70050761421322 Y66.45431472081218
G1 X221.0994923857868 Y68.85456852791879 F550
G1 X17.695431472081218 Y68.85532994923858 F550
G1 X17.695431472081218 Y62.40355329949239
G1 X17.697969543147206 Y43.35279187817258
G1 X17.695431472081218 Y24.30203045685279
G1 X17.697969543147206 Y17.85279187817259
G1 X221.0989847715736 Y17.85279187817259
G1 X221.0989847715736 Y68.85532994923858
G1 X223.4994923857868 Y71.25456852791878 F550
G1 X15.296954314720812 Y71.25380710659898 F550
G1 X15.296954314720812 Y62.401015228426395
G1 X15.296954314720812 Y43.35279187817258
G1 X15.296954314720812 Y24.30203045685279
G1 X15.296954314720812 Y15.451776649746193
G1 X223.5 Y15.451776649746193
G1 X223.5 Y71.25380710659898
G1 X225.8994923857868 Y73.65456852791878 F550
G1 X12.895939086294417 Y73.65482233502539 F550
G1 X12.895939086294417 Y62.401015228426395
G1 X12.898477157360407 Y43.35279187817258
G1 X12.895939086294417 Y24.30203045685279
G1 X12.895939086294417 Y13.050761421319796
G1 X225.89847715736042 Y13.050761421319796
G1 X225.89847715736042 Y73.65482233502539
G1 X228.2994923857868 Y76.05456852791878 F550
G1 X10.497461928934012 Y76.05583756345177 F550
G1 X10.497461928934012 Y62.401015228426395
G1 X10.497461928934012 Y43.35279187817258
G1 X10.497461928934012 Y24.30203045685279
G1 X10.497461928934012 Y10.652284263959391
G1 X228.2994923857868 Y10.652284263959391
G1 X228.2994923857868 Y76.05583756345177
G1 X230.6994923857868 Y78.45456852791878 F550
G1 X8.096446700507615 Y78.45431472081218 F550
G1 X8.096446700507615 Y62.401015228426395
G1 X8.096446700507615 Y43.35279187817258
G1 X8.096446700507615 Y24.30203045685279
G1 X8.096446700507615 Y8.251269035532996
G1 X230.70050761421322 Y8.251269035532996
G1 X230.70050761421322 Y78.45431472081218
G0 Z15
G0 X197.0994923857868 Y44.85456852791878
G1 Z-6 F500
G1 X41.6979695431472 Y44.85532994923858 F550
G1 X41.6979695431472 Y43.35279187817258
G1 X41.6979695431472 Y41.85279187817259
G1 X197.0989847715736 Y41.85279187817259
G1 X197.0989847715736 Y44.85532994923858
G1 X199.4994923857868 Y47.254568527918785 F550
G1 X39.296954314720814 Y47.253807106598984 F550
G1 X39.296954314720814 Y43.35279187817258
G1 X39.296954314720814 Y39.45177664974619
G1 X199.5 Y39.45177664974619
G1 X199.5 Y47.253807106598984
G1 X201.8994923857868 Y49.654568527918784 F550
G1 X36.89593908629442 Y49.65482233502538 F550
G1 X36.898477157360404 Y43.35279187817258
G1 X36.89593908629442 Y37.0507614213198
G1 X201.8984771573604 Y37.0507614213198
G1 X201.8984771573604 Y49.65482233502538
G1 X204.2994923857868 Y52.05456852791878 F550
G1 X34.49746192893401 Y52.055837563451774 F550
G1 X34.49746192893401 Y43.35279187817258
G1 X34.49746192893401 Y34.652284263959395
G1 X204.29949238578678 Y34.652284263959395
G1 X204.29949238578678 Y52.055837563451774
G1 X206.6994923857868 Y54.45456852791878 F550
G1 X32.09644670050761 Y54.454314720812185 F550
G1 X32.09644670050761 Y43.35279187817258
G1 X32.09644670050761 Y32.251269035533
G1 X206.7005076142132 Y32.251269035533
G1 X206.7005076142132 Y54.454314720812185
G1 X209.0994923857868 Y56.85456852791878 F550
G1 X29.697969543147206 Y56.85532994923858 F550
G1 X29.697969543147206 Y43.35279187817258
G1 X29.697969543147206 Y29.85279187817259
G1 X209.09898477157358 Y29.85279187817259
G1 X209.09898477157358 Y56.85532994923858
G1 X211.4994923857868 Y59.254568527918785 F550
G1 X27.29695431472081 Y59.253807106598984 F550
G1 X27.29695431472081 Y43.35279187817258
G1 X27.29695431472081 Y27.451776649746193
G1 X211.5 Y27.451776649746193
G1 X211.5 Y59.253807106598984
G1 X213.8994923857868 Y61.654568527918784 F550
G1 X24.895939086294415 Y61.65482233502538 F550
G1 X24.898477157360407 Y43.35279187817258
G1 X24.895939086294415 Y25.050761421319798
G1 X213.8984771573604 Y25.050761421319798
G1 X213.8984771573604 Y61.65482233502538
G1 X216.2994923857868 Y64.05456852791878 F550
G1 X22.49746192893401 Y64.05583756345177 F550
G1 X22.49746192893401 Y62.40355329949239
G1 X22.49746192893401 Y43.35279187817258
G1 X22.49746192893401 Y24.30203045685279
G1 X22.49746192893401 Y22.65228426395939
G1 X216.29949238578678 Y22.65228426395939
G1 X216.29949238578678 Y64.05583756345177
G1 X218.6994923857868 Y66.45456852791878 F550
G1 X20.096446700507613 Y66.45431472081218 F550
G1 X20.096446700507613 Y62.40355329949239
G1 X20.096446700507613 Y43.35279187817258
G1 X20.096446700507613 Y24.30203045685279
G1 X20.096446700507613 Y20.251269035532996
G1 X218.70050761421322 Y20.251269035532996
G1 X218.70050761421322 Y66.45431472081218
G1 X221.0994923857868 Y68.85456852791879 F550
G1 X17.695431472081218 Y68.85532994923858 F550
G1 X17.695431472081218 Y62.40355329949239
G1 X17.697969543147206 Y43.35279187817258
G1 X17.695431472081218 Y24.30203045685279
G1 X17.697969543147206 Y17.85279187817259
G1 X221.0989847715736 Y17.85279187817259
G1 X221.0989847715736 Y68.85532994923858
G1 X223.4994923857868 Y71.25456852791878 F550
G1 X15.296954314720812 Y71.25380710659898 F550
G1 X15.296954314720812 Y62.401015228426395
G1 X15.296954314720812 Y43.35279187817258
G1 X15.296954314720812 Y24.30203045685279
G1 X15.296954314720812 Y15.451776649746193
G1 X223.5 Y15.451776649746193
G1 X223.5 Y71.25380710659898
G1 X225.8994923857868 Y73.65456852791878 F550
G1 X12.895939086294417 Y73.65482233502539 F550
G1 X12.895939086294417 Y62.401015228426395
G1 X12.898477157360407 Y43.35279187817258
G1 X12.895939086294417 Y24.30203045685279
G1 X12.895939086294417 Y13.050761421319796
G1 X225.89847715736042 Y13.050761421319796
G1 X225.89847715736042 Y73.65482233502539
G1 X228.2994923857868 Y76.05456852791878 F550
G1 X10.497461928934012 Y76.05583756345177 F550
G1 X10.497461928934012 Y62.401015228426395
G1 X10.497461928934012 Y43.35279187817258
G1 X10.497461928934012 Y24.30203045685279
G1 X10.497461928934012 Y10.652284263959391
G1 X228.2994923857868 Y10.652284263959391
G1 X228.2994923857868 Y76.05583756345177
G1 X230.6994923857868 Y78.45456852791878 F550
G1 X8.096446700507615 Y78.45431472081218 F550
G1 X8.096446700507615 Y62.401015228426395
G1 X8.096446700507615 Y43.35279187817258
G1 X8.096446700507615 Y24.30203045685279
G1 X8.096446700507615 Y8.251269035532996
G1 X230.70050761421322 Y8.251269035532996
G1 X230.70050761421322 Y78.45431472081218
G0 Z15
G0 X197.0994923857868 Y44.85456852791878
G1 Z-7.5 F500
G1 X41.6979695431472 Y44.85532994923858 F550
G1 X41.6979695431472 Y43.35279187817258
G1 X41.6979695431472 Y41.85279187817259
G1 X197.0989847715736 Y41.85279187817259
G1 X197.0989847715736 Y44.85532994923858
G1 X199.4994923857868 Y47.254568527918785 F550
G1 X39.296954314720814 Y47.253807106598984 F550
G1 X39.296954314720814 Y43.35279187817258
G1 X39.296954314720814 Y39.45177664974619
G1 X199.5 Y39.45177664974619
G1 X199.5 Y47.253807106598984
G1 X201.8994923857868 Y49.654568527918784 F550
G1 X36.89593908629442 Y49.65482233502538 F550
G1 X36.898477157360404 Y43.35279187817258
G1 X36.89593908629442 Y37.0507614213198
G1 X201.8984771573604 Y37.0507614213198
G1 X201.8984771573604 Y49.65482233502538
G1 X204.2994923857868 Y52.05456852791878 F550
G1 X34.49746192893401 Y52.055837563451774 F550
G1 X34.49746192893401 Y43.35279187817258
G1 X34.49746192893401 Y34.652284263959395
G1 X204.29949238578678 Y34.652284263959395
G1 X204.29949238578678 Y52.055837563451774
G1 X206.6994923857868 Y54.45456852791878 F550
G1 X32.09644670050761 Y54.454314720812185 F550
G1 X32.09644670050761 Y43.35279187817258
G1 X32.09644670050761 Y32.251269035533
G1 X206.7005076142132 Y32.251269035533
G1 X206.7005076142132 Y54.454314720812185
G1 X209.0994923857868 Y56.85456852791878 F550
G1 X29.697969543147206 Y56.85532994923858 F550
G1 X29.697969543147206 Y43.35279187817258
G1 X29.697969543147206 Y29.85279187817259
G1 X209.09898477157358 Y29.85279187817259
G1 X209.09898477157358 Y56.85532994923858
G1 X211.4994923857868 Y59.254568527918785 F550
G1 X27.29695431472081 Y59.253807106598984 F550
G1 X27.29695431472081 Y43.35279187817258
G1 X27.29695431472081 Y27.451776649746193
G1 X211.5 Y27.451776649746193
G1 X211.5 Y59.253807106598984
G1 X213.8994923857868 Y61.654568527918784 F550
G1 X24.895939086294415 Y61.65482233502538 F550
G1 X24.898477157360407 Y43.35279187817258
G1 X24.895939086294415 Y25.050761421319798
G1 X213.8984771573604 Y25.050761421319798
G1 X213.8984771573604 Y61.65482233502538
G1 X216.2994923857868 Y64.05456852791878 F550
G1 X22.49746192893401 Y64.05583756345177 F550
G1 X22.49746192893401 Y62.40355329949239
G1 X22.49746192893401 Y43.35279187817258
G1 X22.49746192893401 Y24.30203045685279
G1 X22.49746192893401 Y22.65228426395939
G1 X216.29949238578678 Y22.65228426395939
G1 X216.29949238578678 Y64.05583756345177
G1 X218.6994923857868 Y66.45456852791878 F550
G1 X20.096446700507613 Y66.45431472081218 F550
G1 X20.096446700507613 Y62.40355329949239
G1 X20.096446700507613 Y43.35279187817258
G1 X20.096446700507613 Y24.30203045685279
G1 X20.096446700507613 Y20.251269035532996
G1 X218.70050761421322 Y20.251269035532996
G1 X218.70050761421322 Y66.45431472081218
G1 X221.0994923857868 Y68.85456852791879 F550
G1 X17.695431472081218 Y68.85532994923858 F550
G1 X17.695431472081218 Y62.40355329949239
G1 X17.697969543147206 Y43.35279187817258
G1 X17.695431472081218 Y24.30203045685279
G1 X17.697969543147206 Y17.85279187817259
G1 X221.0989847715736 Y17.85279187817259
G1 X221.0989847715736 Y68.85532994923858
G1 X223.4994923857868 Y71.25456852791878 F550
G1 X15.296954314720812 Y71.25380710659898 F550
G1 X15.296954314720812 Y62.401015228426395
G1 X15.296954314720812 Y43.35279187817258
G1 X15.296954314720812 Y24.30203045685279
G1 X15.296954314720812 Y15.451776649746193
G1 X223.5 Y15.451776649746193
G1 X223.5 Y71.25380710659898
G1 X225.8994923857868 Y73.65456852791878 F550
G1 X12.895939086294417 Y73.65482233502539 F550
G1 X12.895939086294417 Y62.401015228426395
G1 X12.898477157360407 Y43.35279187817258
G1 X12.895939086294417 Y24.30203045685279
G1 X12.895939086294417 Y13.050761421319796
G1 X225.89847715736042 Y13.050761421319796
G1 X225.89847715736042 Y73.65482233502539
G1 X228.2994923857868 Y76.05456852791878 F550
G1 X10.497461928934012 Y76.05583756345177 F550
G1 X10.497461928934012 Y62.401015228426395
G1 X10.497461928934012 Y43.35279187817258
G1 X10.497461928934012 Y24.30203045685279
G1 X10.497461928934012 Y10.652284263959391
G1 X228.2994923857868 Y10.652284263959391
G1 X228.2994923857868 Y76.05583756345177
G1 X230.6994923857868 Y78.45456852791878 F550
G1 X8.096446700507615 Y78.45431472081218 F550
G1 X8.096446700507615 Y62.401015228426395
G1 X8.096446700507615 Y43.35279187817258
G1 X8.096446700507615 Y24.30203045685279
G1 X8.096446700507615 Y8.251269035532996
G1 X230.70050761421322 Y8.251269035532996
G1 X230.70050761421322 Y78.45431472081218
G0 Z15
G0 X197.0994923857868 Y44.85456852791878
G1 Z-9 F500
G1 X41.6979695431472 Y44.85532994923858 F550
G1 X41.6979695431472 Y43.35279187817258
G1 X41.6979695431472 Y41.85279187817259
G1 X197.0989847715736 Y41.85279187817259
G1 X197.0989847715736 Y44.85532994923858
G1 X199.4994923857868 Y47.254568527918785 F550
G1 X39.296954314720814 Y47.253807106598984 F550
G1 X39.296954314720814 Y43.35279187817258
G1 X39.296954314720814 Y39.45177664974619
G1 X199.5 Y39.45177664974619
G1 X199.5 Y47.253807106598984
G1 X201.8994923857868 Y49.654568527918784 F550
G1 X36.89593908629442 Y49.65482233502538 F550
G1 X36.898477157360404 Y43.35279187817258
G1 X36.89593908629442 Y37.0507614213198
G1 X201.8984771573604 Y37.0507614213198
G1 X201.8984771573604 Y49.65482233502538
G1 X204.2994923857868 Y52.05456852791878 F550
G1 X34.49746192893401 Y52.055837563451774 F550
G1 X34.49746192893401 Y43.35279187817258
G1 X34.49746192893401 Y34.652284263959395
G1 X204.29949238578678 Y34.652284263959395
G1 X204.29949238578678 Y52.055837563451774
G1 X206.6994923857868 Y54.45456852791878 F550
G1 X32.09644670050761 Y54.454314720812185 F550
G1 X32.09644670050761 Y43.35279187817258
G1 X32.09644670050761 Y32.251269035533
G1 X206.7005076142132 Y32.251269035533
G1 X206.7005076142132 Y54.454314720812185
G1 X209.0994923857868 Y56.85456852791878 F550
G1 X29.697969543147206 Y56.85532994923858 F550
G1 X29.697969543147206 Y43.35279187817258
G1 X29.697969543147206 Y29.85279187817259
G1 X209.09898477157358 Y29.85279187817259
G1 X209.09898477157358 Y56.85532994923858
G1 X211.4994923857868 Y59.254568527918785 F550
G1 X27.29695431472081 Y59.253807106598984 F550
G1 X27.29695431472081 Y43.35279187817258
G1 X27.29695431472081 Y27.451776649746193
G1 X211.5 Y27.451776649746193
G1 X211.5 Y59.253807106598984
G1 X213.8994923857868 Y61.654568527918784 F550
G1 X24.895939086294415 Y61.65482233502538 F550
G1 X24.898477157360407 Y43.35279187817258
G1 X24.895939086294415 Y25.050761421319798
G1 X213.8984771573604 Y25.050761421319798
G1 X213.8984771573604 Y61.65482233502538
G1 X216.2994923857868 Y64.05456852791878 F550
G1 X22.49746192893401 Y64.05583756345177 F550
G1 X22.49746192893401 Y62.40355329949239
G1 X22.49746192893401 Y43.35279187817258
G1 X22.49746192893401 Y24.30203045685279
G1 X22.49746192893401 Y22.65228426395939
G1 X216.29949238578678 Y22.65228426395939
G1 X216.29949238578678 Y64.05583756345177
G1 X218.6994923857868 Y66.45456852791878 F550
G1 X20.096446700507613 Y66.45431472081218 F550
G1 X20.096446700507613 Y62.40355329949239
G1 X20.096446700507613 Y43.35279187817258
G1 X20.096446700507613 Y24.30203045685279
G1 X20.096446700507613 Y20.251269035532996
G1 X218.70050761421322 Y20.251269035532996
G1 X218.70050761421322 Y66.45431472081218
G1 X221.0994923857868 Y68.85456852791879 F550
G1 X17.695431472081218 Y68.85532994923858 F550
G1 X17.695431472081218 Y62.40355329949239
G1 X17.697969543147206 Y43.35279187817258
G1 X17.695431472081218 Y24.30203045685279
G1 X17.697969543147206 Y17.85279187817259
G1 X221.0989847715736 Y17.85279187817259
G1 X221.0989847715736 Y68.85532994923858
G1 X223.4994923857868 Y71.25456852791878 F550
G1 X15.296954314720812 Y71.25380710659898 F550
G1 X15.296954314720812 Y62.401015228426395
G1 X15.296954314720812 Y43.35279187817258
G1 X15.296954314720812 Y24.30203045685279
G1 X15.296954314720812 Y15.451776649746193
G1 X223.5 Y15.451776649746193
G1 X223.5 Y71.25380710659898
G1 X225.8994923857868 Y73.65456852791878 F550
G1 X12.895939086294417 Y73.65482233502539 F550
G1 X12.895939086294417 Y62.401015228426395
G1 X12.898477157360407 Y43.35279187817258
G1 X12.895939086294417 Y24.30203045685279
G1 X12.895939086294417 Y13.050761421319796
G1 X225.89847715736042 Y13.050761421319796
G1 X225.89847715736042 Y73.65482233502539
G1 X228.2994923857868 Y76.05456852791878 F550
G1 X10.497461928934012 Y76.05583756345177 F550
G1 X10.497461928934012 Y62.401015228426395
G1 X10.497461928934012 Y43.35279187817258
G1 X10.497461928934012 Y24.30203045685279
G1 X10.497461928934012 Y10.652284263959391
G1 X228.2994923857868 Y10.652284263959391
G1 X228.2994923857868 Y76.05583756345177
G1 X230.6994923857868 Y78.45456852791878 F550
G1 X8.096446700507615 Y78.45431472081218 F550
G1 X8.096446700507615 Y62.401015228426395
G1 X8.096446700507615 Y43.35279187817258
G1 X8.096446700507615 Y24.30203045685279
G1 X8.096446700507615 Y8.251269035532996
G1 X230.70050761421322 Y8.251269035532996
G1 X230.70050761421322 Y78.45431472081218
G0 Z15
G0 X197.0994923857868 Y44.85456852791878
G1 Z-10.5 F500
G1 X41.6979695431472 Y44.85532994923858 F550
G1 X41.6979695431472 Y43.35279187817258
G1 X41.6979695431472 Y41.85279187817259
G1 X197.0989847715736 Y41.85279187817259
G1 X197.0989847715736 Y44.85532994923858
G1 X199.4994923857868 Y47.254568527918785 F550
G1 X39.296954314720814 Y47.253807106598984 F550
G1 X39.296954314720814 Y43.35279187817258
G1 X39.296954314720814 Y39.45177664974619
G1 X199.5 Y39.45177664974619
G1 X199.5 Y47.253807106598984
G1 X201.8994923857868 Y49.654568527918784 F550
G1 X36.89593908629442 Y49.65482233502538 F550
G1 X36.898477157360404 Y43.35279187817258
G1 X36.89593908629442 Y37.0507614213198
G1 X201.8984771573604 Y37.0507614213198
G1 X201.8984771573604 Y49.65482233502538
G1 X204.2994923857868 Y52.05456852791878 F550
G1 X34.49746192893401 Y52.055837563451774 F550
G1 X34.49746192893401 Y43.35279187817258
G1 X34.49746192893401 Y34.652284263959395
G1 X204.29949238578678 Y34.652284263959395
G1 X204.29949238578678 Y52.055837563451774
G1 X206.6994923857868 Y54.45456852791878 F550
G1 X32.09644670050761 Y54.454314720812185 F550
G1 X32.09644670050761 Y43.35279187817258
G1 X32.09644670050761 Y32.251269035533
G1 X206.7005076142132 Y32.251269035533
G1 X206.7005076142132 Y54.454314720812185
G1 X209.0994923857868 Y56.85456852791878 F550
G1 X29.697969543147206 Y56.85532994923858 F550
G1 X29.697969543147206 Y43.35279187817258
G1 X29.697969543147206 Y29.85279187817259
G1 X209.09898477157358 Y29.85279187817259
G1 X209.09898477157358 Y56.85532994923858
G1 X211.4994923857868 Y59.254568527918785 F550
G1 X27.29695431472081 Y59.253807106598984 F550
G1 X27.29695431472081 Y43.35279187817258
G1 X27.29695431472081 Y27.451776649746193
G1 X211.5 Y27.451776649746193
G1 X211.5 Y59.253807106598984
G1 X213.8994923857868 Y61.654568527918784 F550
G1 X24.895939086294415 Y61.65482233502538 F550
G1 X24.898477157360407 Y43.35279187817258
G1 X24.895939086294415 Y25.050761421319798
G1 X213.8984771573604 Y25.050761421319798
G1 X213.8984771573604 Y61.65482233502538
G1 X216.2994923857868 Y64.05456852791878 F550
G1 X22.49746192893401 Y64.05583756345177 F550
G1 X22.49746192893401 Y62.40355329949239
G1 X22.49746192893401 Y43.35279187817258
G1 X22.49746192893401 Y24.30203045685279
G1 X22.49746192893401 Y22.65228426395939
G1 X216.29949238578678 Y22.65228426395939
G1 X216.29949238578678 Y64.05583756345177
G1 X218.6994923857868 Y66.45456852791878 F550
G1 X20.096446700507613 Y66.45431472081218 F550
G1 X20.096446700507613 Y62.40355329949239
G1 X20.096446700507613 Y43.35279187817258
G1 X20.096446700507613 Y24.30203045685279
G1 X20.096446700507613 Y20.251269035532996
G1 X218.70050761421322 Y20.251269035532996
G1 X218.70050761421322 Y66.45431472081218
G1 X221.0994923857868 Y68.85456852791879 F550
G1 X17.695431472081218 Y68.85532994923858 F550
G1 X17.695431472081218 Y62.40355329949239
G1 X17.697969543147206 Y43.35279187817258
G1 X17.695431472081218 Y24.30203045685279
G1 X17.697969543147206 Y17.85279187817259
G1 X221.0989847715736 Y17.85279187817259
G1 X221.0989847715736 Y68.85532994923858
G1 X223.4994923857868 Y71.25456852791878 F550
G1 X15.296954314720812 Y71.25380710659898 F550
G1 X15.296954314720812 Y62.401015228426395
G1 X15.296954314720812 Y43.35279187817258
G1 X15.296954314720812 Y24.30203045685279
G1 X15.296954314720812 Y15.451776649746193
G1 X223.5 Y15.451776649746193
G1 X223.5 Y71.25380710659898
G1 X225.8994923857868 Y73.65456852791878 F550
G1 X12.895939086294417 Y73.65482233502539 F550
G1 X12.895939086294417 Y62.401015228426395
G1 X12.898477157360407 Y43.35279187817258
G1 X12.895939086294417 Y24.30203045685279
G1 X12.895939086294417 Y13.050761421319796
G1 X225.89847715736042 Y13.050761421319796
G1 X225.89847715736042 Y73.65482233502539
G1 X228.2994923857868 Y76.05456852791878 F550
G1 X10.497461928934012 Y76.05583756345177 F550
G1 X10.497461928934012 Y62.401015228426395
G1 X10.497461928934012 Y43.35279187817258
G1 X10.497461928934012 Y24.30203045685279
G1 X10.497461928934012 Y10.652284263959391
G1 X228.2994923857868 Y10.652284263959391
G1 X228.2994923857868 Y76.05583756345177
G1 X230.6994923857868 Y78.45456852791878 F550
G1 X8.096446700507615 Y78.45431472081218 F550
G1 X8.096446700507615 Y62.401015228426395
G1 X8.096446700507615 Y43.35279187817258
G1 X8.096446700507615 Y24.30203045685279
G1 X8.096446700507615 Y8.251269035532996
G1 X230.70050761421322 Y8.251269035532996
G1 X230.70050761421322 Y78.45431472081218
G0 Z15
G0 X197.0994923857868 Y44.85456852791878
G1 Z-12 F500
G1 X41.6979695431472 Y44.85532994923858 F550
G1 X41.6979695431472 Y43.35279187817258
G1 X41.6979695431472 Y41.85279187817259
G1 X197.0989847715736 Y41.85279187817259
G1 X197.0989847715736 Y44.85532994923858
G1 X199.4994923857868 Y47.254568527918785 F550
G1 X39.296954314720814 Y47.253807106598984 F550
G1 X39.296954314720814 Y43.35279187817258
G1 X39.296954314720814 Y39.45177664974619
G1 X199.5 Y39.45177664974619
G1 X199.5 Y47.253807106598984
G1 X201.8994923857868 Y49.654568527918784 F550
G1 X36.89593908629442 Y49.65482233502538 F550
G1 X36.898477157360404 Y43.35279187817258
G1 X36.89593908629442 Y37.0507614213198
G1 X201.8984771573604 Y37.0507614213198
G1 X201.8984771573604 Y49.65482233502538
G1 X204.2994923857868 Y52.05456852791878 F550
G1 X34.49746192893401 Y52.055837563451774 F550
G1 X34.49746192893401 Y43.35279187817258
G1 X34.49746192893401 Y34.652284263959395
G1 X204.29949238578678 Y34.652284263959395
G1 X204.29949238578678 Y52.055837563451774
G1 X206.6994923857868 Y54.45456852791878 F550
G1 X32.09644670050761 Y54.454314720812185 F550
G1 X32.09644670050761 Y43.35279187817258
G1 X32.09644670050761 Y32.251269035533
G1 X206.7005076142132 Y32.251269035533
G1 X206.7005076142132 Y54.454314720812185
G1 X209.0994923857868 Y56.85456852791878 F550
G1 X29.697969543147206 Y56.85532994923858 F550
G1 X29.697969543147206 Y43.35279187817258
G1 X29.697969543147206 Y29.85279187817259
G1 X209.09898477157358 Y29.85279187817259
G1 X209.09898477157358 Y56.85532994923858
G1 X211.4994923857868 Y59.254568527918785 F550
G1 X27.29695431472081 Y59.253807106598984 F550
G1 X27.29695431472081 Y43.35279187817258
G1 X27.29695431472081 Y27.451776649746193
G1 X211.5 Y27.451776649746193
G1 X211.5 Y59.253807106598984
G1 X213.8994923857868 Y61.654568527918784 F550
G1 X24.895939086294415 Y61.65482233502538 F550
G1 X24.898477157360407 Y43.35279187817258
G1 X24.895939086294415 Y25.050761421319798
G1 X213.8984771573604 Y25.050761421319798
G1 X213.8984771573604 Y61.65482233502538
G1 X216.2994923857868 Y64.05456852791878 F550
G1 X22.49746192893401 Y64.05583756345177 F550
G1 X22.49746192893401 Y62.40355329949239
G1 X22.49746192893401 Y43.35279187817258
G1 X22.49746192893401 Y24.30203045685279
G1 X22.49746192893401 Y22.65228426395939
G1 X216.29949238578678 Y22.65228426395939
G1 X216.29949238578678 Y64.05583756345177
G1 X218.6994923857868 Y66.45456852791878 F550
G1 X20.096446700507613 Y66.45431472081218 F550
G1 X20.096446700507613 Y62.40355329949239
G1 X20.096446700507613 Y43.35279187817258
G1 X20.096446700507613 Y24.30203045685279
G1 X20.096446700507613 Y20.251269035532996
G1 X218.70050761421322 Y20.251269035532996
G1 X218.70050761421322 Y66.45431472081218
G1 X221.0994923857868 Y68.85456852791879 F550
G1 X17.695431472081218 Y68.85532994923858 F550
G1 X17.695431472081218 Y62.40355329949239
G1 X17.697969543147206 Y43.35279187817258
G1 X17.695431472081218 Y24.30203045685279
G1 X17.697969543147206 Y17.85279187817259
G1 X221.0989847715736 Y17.85279187817259
G1 X221.0989847715736 Y68.85532994923858
G1 X223.4994923857868 Y71.25456852791878 F550
G1 X15.296954314720812 Y71.25380710659898 F550
G1 X15.296954314720812 Y62.401015228426395
G1 X15.296954314720812 Y43.35279187817258
G1 X15.296954314720812 Y24.30203045685279
G1 X15.296954314720812 Y15.451776649746193
G1 X223.5 Y15.451776649746193
G1 X223.5 Y71.25380710659898
G1 X225.8994923857868 Y73.65456852791878 F550
G1 X12.895939086294417 Y73.65482233502539 F550
G1 X12.895939086294417 Y62.401015228426395
G1 X12.898477157360407 Y43.35279187817258
G1 X12.895939086294417 Y24.30203045685279
G1 X12.895939086294417 Y13.050761421319796
G1 X225.89847715736042 Y13.050761421319796
G1 X225.89847715736042 Y73.65482233502539
G1 X228.2994923857868 Y76.05456852791878 F550
G1 X10.497461928934012 Y76.05583756345177 F550
G1 X10.497461928934012 Y62.401015228426395
G1 X10.497461928934012 Y43.35279187817258
G1 X10.497461928934012 Y24.30203045685279
G1 X10.497461928934012 Y10.652284263959391
G1 X228.2994923857868 Y10.652284263959391
G1 X228.2994923857868 Y76.05583756345177
G1 X230.6994923857868 Y78.45456852791878 F550
G1 X8.096446700507615 Y78.45431472081218 F550
G1 X8.096446700507615 Y62.401015228426395
G1 X8.096446700507615 Y43.35279187817258
G1 X8.096446700507615 Y24.30203045685279
G1 X8.096446700507615 Y8.251269035532996
G1 X230.70050761421322 Y8.251269035532996
G1 X230.70050761421322 Y78.45431472081218
G0 Z15
G0 X197.0994923857868 Y44.85456852791878
G1 Z-13.5 F500
G1 X41.6979695431472 Y44.85532994923858 F550
G1 X41.6979695431472 Y43.35279187817258
G1 X41.6979695431472 Y41.85279187817259
G1 X197.0989847715736 Y41.85279187817259
G1 X197.0989847715736 Y44.85532994923858
G1 X199.4994923857868 Y47.254568527918785 F550
G1 X39.296954314720814 Y47.253807106598984 F550
G1 X39.296954314720814 Y43.35279187817258
G1 X39.296954314720814 Y39.45177664974619
G1 X199.5 Y39.45177664974619
G1 X199.5 Y47.253807106598984
G1 X201.8994923857868 Y49.654568527918784 F550
G1 X36.89593908629442 Y49.65482233502538 F550
G1 X36.898477157360404 Y43.35279187817258
G1 X36.89593908629442 Y37.0507614213198
G1 X201.8984771573604 Y37.0507614213198
G1 X201.8984771573604 Y49.65482233502538
G1 X204.2994923857868 Y52.05456852791878 F550
G1 X34.49746192893401 Y52.055837563451774 F550
G1 X34.49746192893401 Y43.35279187817258
G1 X34.49746192893401 Y34.652284263959395
G1 X204.29949238578678 Y34.652284263959395
G1 X204.29949238578678 Y52.055837563451774
G1 X206.6994923857868 Y54.45456852791878 F550
G1 X32.09644670050761 Y54.454314720812185 F550
G1 X32.09644670050761 Y43.35279187817258
G1 X32.09644670050761 Y32.251269035533
G1 X206.7005076142132 Y32.251269035533
G1 X206.7005076142132 Y54.454314720812185
G1 X209.0994923857868 Y56.85456852791878 F550
G1 X29.697969543147206 Y56.85532994923858 F550
G1 X29.697969543147206 Y43.35279187817258
G1 X29.697969543147206 Y29.85279187817259
G1 X209.09898477157358 Y29.85279187817259
G1 X209.09898477157358 Y56.85532994923858
G1 X211.4994923857868 Y59.254568527918785 F550
G1 X27.29695431472081 Y59.253807106598984 F550
G1 X27.29695431472081 Y43.35279187817258
G1 X27.29695431472081 Y27.451776649746193
G1 X211.5 Y27.451776649746193
G1 X211.5 Y59.253807106598984
G1 X213.8994923857868 Y61.654568527918784 F550
G1 X24.895939086294415 Y61.65482233502538 F550
G1 X24.898477157360407 Y43.35279187817258
G1 X24.895939086294415 Y25.050761421319798
G1 X213.8984771573604 Y25.050761421319798
G1 X213.8984771573604 Y61.65482233502538
G1 X216.2994923857868 Y64.05456852791878 F550
G1 X22.49746192893401 Y64.05583756345177 F550
G1 X22.49746192893401 Y62.40355329949239
G1 X22.49746192893401 Y43.35279187817258
G1 X22.49746192893401 Y24.30203045685279
G1 X22.49746192893401 Y22.65228426395939
G1 X216.29949238578678 Y22.65228426395939
G1 X216.29949238578678 Y64.05583756345177
G1 X218.6994923857868 Y66.45456852791878 F550
G1 X20.096446700507613 Y66.45431472081218 F550
G1 X20.096446700507613 Y62.40355329949239
G1 X20.096446700507613 Y43.35279187817258
G1 X20.096446700507613 Y24.30203045685279
G1 X20.096446700507613 Y20.251269035532996
G1 X218.70050761421322 Y20.251269035532996
G1 X218.70050761421322 Y66.45431472081218
G1 X221.0994923857868 Y68.85456852791879 F550
G1 X17.695431472081218 Y68.85532994923858 F550
G1 X17.695431472081218 Y62.40355329949239
G1 X17.697969543147206 Y43.35279187817258
G1 X17.695431472081218 Y24.30203045685279
G1 X17.697969543147206 Y17.85279187817259
G1 X221.0989847715736 Y17.85279187817259
G1 X221.0989847715736 Y68.85532994923858
G1 X223.4994923857868 Y71.25456852791878 F550
G1 X15.296954314720812 Y71.25380710659898 F550
G1 X15.296954314720812 Y62.401015228426395
G1 X15.296954314720812 Y43.35279187817258
G1 X15.296954314720812 Y24.30203045685279
G1 X15.296954314720812 Y15.451776649746193
G1 X223.5 Y15.451776649746193
G1 X223.5 Y71.25380710659898
G1 X225.8994923857868 Y73.65456852791878 F550
G1 X12.895939086294417 Y73.65482233502539 F550
G1 X12.895939086294417 Y62.401015228426395
G1 X12.898477157360407 Y43.35279187817258
G1 X12.895939086294417 Y24.30203045685279
G1 X12.895939086294417 Y13.050761421319796
G1 X225.89847715736042 Y13.050761421319796
G1 X225.89847715736042 Y73.65482233502539
G1 X228.2994923857868 Y76.05456852791878 F550
G1 X10.497461928934012 Y76.05583756345177 F550
G1 X10.497461928934012 Y62.401015228426395
G1 X10.497461928934012 Y43.35279187817258
G1 X10.497461928934012 Y24.30203045685279
G1 X10.497461928934012 Y10.652284263959391
G1 X228.2994923857868 Y10.652284263959391
G1 X228.2994923857868 Y76.05583756345177
G1 X230.6994923857868 Y78.45456852791878 F550
G1 X8.096446700507615 Y78.45431472081218 F550
G1 X8.096446700507615 Y62.401015228426395
G1 X8.096446700507615 Y43.35279187817258
G1 X8.096446700507615 Y24.30203045685279
G1 X8.096446700507615 Y8.251269035532996
G1 X230.70050761421322 Y8.251269035532996
G1 X230.70050761421322 Y78.45431472081218
G0 Z15
G0 X197.0994923857868 Y44.85456852791878
G1 Z-14 F500
G1 X41.6979695431472 Y44.85532994923858 F550
G1 X41.6979695431472 Y43.35279187817258
G1 X41.6979695431472 Y41.85279187817259
G1 X197.0989847715736 Y41.85279187817259
G1 X197.0989847715736 Y44.85532994923858
G1 X199.4994923857868 Y47.254568527918785 F550
G1 X39.296954314720814 Y47.253807106598984 F550
G1 X39.296954314720814 Y43.35279187817258
G1 X39.296954314720814 Y39.45177664974619
G1 X199.5 Y39.45177664974619
G1 X199.5 Y47.253807106598984
G1 X201.8994923857868 Y49.654568527918784 F550
G1 X36.89593908629442 Y49.65482233502538 F550
G1 X36.898477157360404 Y43.35279187817258
G1 X36.89593908629442 Y37.0507614213198
G1 X201.8984771573604 Y37.0507614213198
G1 X201.8984771573604 Y49.65482233502538
G1 X204.2994923857868 Y52.05456852791878 F550
G1 X34.49746192893401 Y52.055837563451774 F550
G1 X34.49746192893401 Y43.35279187817258
G1 X34.49746192893401 Y34.652284263959395
G1 X204.29949238578678 Y34.652284263959395
G1 X204.29949238578678 Y52.055837563451774
G1 X206.6994923857868 Y54.45456852791878 F550
G1 X32.09644670050761 Y54.454314720812185 F550
G1 X32.09644670050761 Y43.35279187817258
G1 X32.09644670050761 Y32.251269035533
G1 X206.7005076142132 Y32.251269035533
G1 X206.7005076142132 Y54.454314720812185
G1 X209.0994923857868 Y56.85456852791878 F550
G1 X29.697969543147206 Y56.85532994923858 F550
G1 X29.697969543147206 Y43.35279187817258
G1 X29.697969543147206 Y29.85279187817259
G1 X209.09898477157358 Y29.85279187817259
G1 X209.09898477157358 Y56.85532994923858
G1 X211.4994923857868 Y59.254568527918785 F550
G1 X27.29695431472081 Y59.253807106598984 F550
G1 X27.29695431472081 Y43.35279187817258
G1 X27.29695431472081 Y27.451776649746193
G1 X211.5 Y27.451776649746193
G1 X211.5 Y59.253807106598984
G1 X213.8994923857868 Y61.654568527918784 F550
G1 X24.895939086294415 Y61.65482233502538 F550
G1 X24.898477157360407 Y43.35279187817258
G1 X24.895939086294415 Y25.050761421319798
G1 X213.8984771573604 Y25.050761421319798
G1 X213.8984771573604 Y61.65482233502538
G1 X216.2994923857868 Y64.05456852791878 F550
G1 X22.49746192893401 Y64.05583756345177 F550
G1 X22.49746192893401 Y62.40355329949239
G1 X22.49746192893401 Y43.35279187817258
G1 X22.49746192893401 Y24.30203045685279
G1 X22.49746192893401 Y22.65228426395939
G1 X216.29949238578678 Y22.65228426395939
G1 X216.29949238578678 Y64.05583756345177
G1 X218.6994923857868 Y66.45456852791878 F550
G1 X20.096446700507613 Y66.45431472081218 F550
G1 X20.096446700507613 Y62.40355329949239
G1 X20.096446700507613 Y43.35279187817258
G1 X20.096446700507613 Y24.30203045685279
G1 X20.096446700507613 Y20.251269035532996
G1 X218.70050761421322 Y20.251269035532996
G1 X218.70050761421322 Y66.45431472081218
G1 X221.0994923857868 Y68.85456852791879 F550
G1 X17.695431472081218 Y68.85532994923858 F550
G1 X17.695431472081218 Y62.40355329949239
G1 X17.697969543147206 Y43.35279187817258
G1 X17.695431472081218 Y24.30203045685279
G1 X17.697969543147206 Y17.85279187817259
G1 X221.0989847715736 Y17.85279187817259
G1 X221.0989847715736 Y68.85532994923858
G1 X223.4994923857868 Y71.25456852791878 F550
G1 X15.296954314720812 Y71.25380710659898 F550
G1 X15.296954314720812 Y62.401015228426395
G1 X15.296954314720812 Y43.35279187817258
G1 X15.296954314720812 Y24.30203045685279
G1 X15.296954314720812 Y15.451776649746193
G1 X223.5 Y15.451776649746193
G1 X223.5 Y71.25380710659898
G1 X225.8994923857868 Y73.65456852791878 F550
G1 X12.895939086294417 Y73.65482233502539 F550
G1 X12.895939086294417 Y62.401015228426395
G1 X12.898477157360407 Y43.35279187817258
G1 X12.895939086294417 Y24.30203045685279
G1 X12.895939086294417 Y13.050761421319796
G1 X225.89847715736042 Y13.050761421319796
G1 X225.89847715736042 Y73.65482233502539
G1 X228.2994923857868 Y76.05456852791878 F550
G1 X10.497461928934012 Y76.05583756345177 F550
G1 X10.497461928934012 Y62.401015228426395
G1 X10.497461928934012 Y43.35279187817258
G1 X10.497461928934012 Y24.30203045685279
G1 X10.497461928934012 Y10.652284263959391
G1 X228.2994923857868 Y10.652284263959391
G1 X228.2994923857868 Y76.05583756345177
G1 X230.6994923857868 Y78.45456852791878 F550
G1 X8.096446700507615 Y78.45431472081218 F550
G1 X8.096446700507615 Y62.401015228426395
G1 X8.096446700507615 Y43.35279187817258
G1 X8.096446700507615 Y24.30203045685279
G1 X8.096446700507615 Y8.251269035532996
G1 X230.70050761421322 Y8.251269035532996
G1 X230.70050761421322 Y78.45431472081218
G0 Z15
M5
M30
